; generated by Slic3r 1.3.0 on 2020-11-23 at 17:23:42

; external perimeters extrusion width = 0.44mm (2.25mm^3/s)
; perimeters extrusion width = 0.48mm (5.03mm^3/s)
; infill extrusion width = 0.48mm (10.05mm^3/s)
; solid infill extrusion width = 0.48mm (2.51mm^3/s)
; top infill extrusion width = 0.48mm (1.88mm^3/s)

M107
M190 S65 ; set bed temperature and wait for it to be reached
M104 S210 ; set temperature
G28 ; home all axes
G1 Z5 F5000 ; lift nozzle

; Filament gcode

M109 S210 ; set temperature and wait for it to be reached
G21 ; set units to millimeters
G90 ; use absolute coordinates
M82 ; use absolute distances for extrusion
G92 E0
G1 Z0.350 F4800.000
G1 E-2.00000 F2400.00000
G92 E0
G1 X11.360 Y13.195 F4800.000
G1 E2.00000 F2400.00000
G1 F1800
G1 X13.646 Y11.958 E2.23641
G1 X16.500 Y11.464 E2.49976
G1 X103.500 Y11.464 E10.41063
G1 X106.069 Y11.862 E10.64704
G1 X108.398 Y13.018 E10.88345
G1 X110.269 Y14.823 E11.11986
G1 X111.506 Y17.110 E11.35627
G1 X112.000 Y19.964 E11.61962
G1 X112.000 Y99.964 E18.89399
G1 X111.602 Y102.533 E19.13040
G1 X110.446 Y104.862 E19.36681
G1 X108.640 Y106.733 E19.60322
G1 X106.354 Y107.970 E19.83963
G1 X104.011 Y108.448 E20.05708
G1 X102.301 Y108.536 E20.21277
G1 X17.699 Y108.536 E27.90555
G1 X15.989 Y108.448 E28.06123
G1 X13.449 Y107.897 E28.29764
G1 X11.193 Y106.603 E28.53405
G1 X9.435 Y104.688 E28.77046
G1 X8.337 Y102.332 E29.00687
G1 X8.000 Y99.964 E29.22433
G1 X8.000 Y19.964 E36.49869
G1 X8.398 Y17.395 E36.73510
G1 X9.554 Y15.066 E36.97152
G1 X11.318 Y13.238 E37.20247
G1 X11.966 Y13.526 F4800.000
G1 F1800
G1 X14.214 Y12.428 E37.42997
G1 X16.500 Y12.089 E37.64009
G1 X103.500 Y12.089 E45.55096
G1 X105.970 Y12.487 E45.77846
G1 X108.191 Y13.639 E46.00596
G1 X109.938 Y15.430 E46.23346
G1 X111.036 Y17.678 E46.46096
G1 X111.375 Y19.964 E46.67108
G1 X111.375 Y99.964 E53.94545
G1 X110.977 Y102.434 E54.17295
G1 X109.825 Y104.655 E54.40045
G1 X108.034 Y106.402 E54.62795
G1 X105.786 Y107.500 E54.85545
G1 X103.973 Y107.824 E55.02290
G1 X102.301 Y107.911 E55.17517
G1 X17.699 Y107.911 E62.86795
G1 X16.027 Y107.824 E63.02022
G1 X13.585 Y107.279 E63.24772
G1 X11.437 Y105.996 E63.47522
G1 X9.801 Y104.103 E63.70272
G1 X8.841 Y101.793 E63.93022
G1 X8.625 Y99.964 E64.09767
G1 X8.625 Y19.964 E71.37204
G1 X9.023 Y17.494 E71.59954
G1 X10.175 Y15.273 E71.82704
G1 X11.923 Y13.568 E72.04908
G1 X12.569 Y13.872 F4800.000
G1 F1800
G1 X14.773 Y12.923 E72.26731
G1 X16.500 Y12.714 E72.42548
G1 X103.500 Y12.714 E80.33636
G1 X105.867 Y13.111 E80.55458
G1 X107.974 Y14.260 E80.77281
G1 X109.591 Y16.033 E80.99104
G1 X110.541 Y18.237 E81.20927
G1 X110.750 Y19.964 E81.36744
G1 X110.750 Y99.964 E88.64180
G1 X110.353 Y102.331 E88.86003
G1 X109.204 Y104.438 E89.07826
G1 X107.431 Y106.055 E89.29649
G1 X105.227 Y107.005 E89.51471
G1 X103.936 Y107.201 E89.63348
G1 X102.301 Y107.286 E89.78233
G1 X17.699 Y107.286 E97.47511
G1 X16.064 Y107.201 E97.62396
G1 X13.726 Y106.662 E97.84219
G1 X11.691 Y105.389 E98.06042
G1 X10.183 Y103.522 E98.27865
G1 X9.368 Y101.265 E98.49687
G1 X9.250 Y99.964 E98.61564
G1 X9.250 Y19.964 E105.89000
G1 X9.647 Y17.597 E106.10823
G1 X10.796 Y15.490 E106.32646
G1 X12.525 Y13.913 E106.53923
G1 X13.168 Y14.238 F4800.000
G1 F1800
G1 X15.320 Y13.445 E106.74777
G1 X16.500 Y13.339 E106.85548
G1 X103.500 Y13.339 E114.76636
G1 X105.759 Y13.736 E114.97490
G1 X107.747 Y14.879 E115.18344
G1 X109.226 Y16.632 E115.39198
G1 X110.019 Y18.784 E115.60053
G1 X110.125 Y19.964 E115.70823
G1 X110.125 Y99.964 E122.98260
G1 X109.728 Y102.223 E123.19114
G1 X108.585 Y104.211 E123.39969
G1 X106.832 Y105.690 E123.60823
G1 X103.898 Y106.577 E123.88692
G1 X102.301 Y106.661 E124.03236
G1 X17.699 Y106.661 E131.72514
G1 X16.102 Y106.577 E131.87058
G1 X13.871 Y106.045 E132.07912
G1 X11.955 Y104.784 E132.28766
G1 X10.584 Y102.946 E132.49620
G1 X9.875 Y99.964 E132.77489
G1 X9.875 Y19.964 E140.04926
G1 X10.272 Y17.705 E140.25780
G1 X11.415 Y15.717 E140.46635
G1 X13.122 Y14.277 E140.66943
G1 E138.66943 F2400.00000
G92 E0
G1 X18.100 Y21.564 F4800.000
G1 E2.00000 F2400.00000
G1 F1800
G1 X101.900 Y21.564 E9.61994
G1 X101.900 Y93.640 E16.17378
G1 X101.609 Y93.706 E16.20096
G1 X100.892 Y92.379 E16.33812
G1 X100.328 Y91.439 E16.43781
G1 X99.654 Y90.420 E16.54889
G1 X99.000 Y89.524 E16.64980
G1 X98.183 Y88.496 E16.76914
G1 X97.441 Y87.644 E16.87192
G1 X96.538 Y86.697 E16.99092
G1 X95.531 Y85.738 E17.11734
G1 X94.457 Y84.810 E17.24639
G1 X93.379 Y83.963 E17.37104
G1 X92.271 Y83.169 E17.49500
G1 X91.065 Y82.381 E17.62604
G1 X89.572 Y81.501 E17.78357
G1 X88.099 Y80.723 E17.93505
G1 X86.235 Y79.845 E18.12245
G1 X84.385 Y79.082 E18.30443
G1 X81.958 Y78.203 E18.53907
G1 X79.287 Y77.380 E18.79324
G1 X76.714 Y76.698 E19.03523
G1 X71.967 Y75.610 E19.47811
G1 X68.332 Y74.875 E19.81533
G1 X66.229 Y74.515 E20.00933
G1 X64.709 Y74.301 E20.14889
G1 X63.193 Y74.138 E20.28756
G1 X61.862 Y74.040 E20.40887
G1 X60.471 Y73.992 E20.53550
G1 X58.958 Y74.005 E20.67305
G1 X57.251 Y74.099 E20.82848
G1 X55.318 Y74.297 E21.00517
G1 X52.515 Y74.722 E21.26295
G1 X47.966 Y75.624 E21.68464
G1 X42.827 Y76.812 E22.16430
G1 X40.657 Y77.396 E22.36860
G1 X38.659 Y78.002 E22.55842
G1 X37.166 Y78.504 E22.70169
G1 X35.676 Y79.055 E22.84616
G1 X34.249 Y79.637 E22.98625
G1 X32.820 Y80.275 E23.12858
G1 X31.887 Y80.730 E23.22296
G1 X30.775 Y81.310 E23.33704
G1 X29.818 Y81.848 E23.43686
G1 X28.834 Y82.444 E23.54142
G1 X27.865 Y83.076 E23.64667
G1 X26.892 Y83.762 E23.75488
G1 X25.966 Y84.468 E23.86082
G1 X25.035 Y85.237 E23.97054
G1 X24.129 Y86.052 E24.08135
G1 X23.271 Y86.891 E24.19050
G1 X22.419 Y87.800 E24.30375
G1 X21.639 Y88.711 E24.41287
G1 X20.785 Y89.811 E24.53946
G1 X20.102 Y90.777 E24.64703
G1 X19.456 Y91.791 E24.75636
G1 X18.742 Y93.027 E24.88614
G1 X18.387 Y93.723 E24.95722
G1 X18.100 Y93.654 E24.98409
G1 X18.100 Y21.624 E31.53378
G1 X17.475 Y20.939 F4800.000
G1 F1800
G1 X102.525 Y20.939 E39.26736
G1 X102.525 Y96.596 E46.14680
G1 X102.219 Y96.653 E46.17513
G1 X101.995 Y96.072 E46.23169
G1 X101.513 Y94.947 E46.34301
G1 X100.990 Y93.861 E46.45258
G1 X100.350 Y92.689 E46.57400
G1 X99.800 Y91.772 E46.67126
G1 X99.140 Y90.777 E46.77979
G1 X98.503 Y89.902 E46.87825
G1 X97.703 Y88.896 E46.99512
G1 X96.979 Y88.065 E47.09533
G1 X96.096 Y87.139 E47.21171
G1 X95.111 Y86.201 E47.33538
G1 X94.060 Y85.292 E47.46172
G1 X93.004 Y84.463 E47.58380
G1 X91.918 Y83.684 E47.70527
G1 X90.735 Y82.912 E47.83378
G1 X89.268 Y82.046 E47.98868
G1 X87.820 Y81.282 E48.13751
G1 X85.982 Y80.417 E48.32223
G1 X84.159 Y79.664 E48.50157
G1 X81.760 Y78.796 E48.73359
G1 X79.115 Y77.981 E48.98526
G1 X76.564 Y77.305 E49.22516
G1 X71.835 Y76.221 E49.66635
G1 X68.217 Y75.489 E50.00197
G1 X66.133 Y75.133 E50.19428
G1 X64.632 Y74.921 E50.33207
G1 X63.137 Y74.760 E50.46885
G1 X61.829 Y74.664 E50.58809
G1 X60.463 Y74.617 E50.71240
G1 X58.978 Y74.630 E50.84741
G1 X57.300 Y74.722 E51.00018
G1 X55.397 Y74.917 E51.17415
G1 X52.623 Y75.338 E51.42928
G1 X48.098 Y76.235 E51.84878
G1 X42.979 Y77.419 E52.32653
G1 X40.829 Y77.997 E52.52893
G1 X38.850 Y78.597 E52.71700
G1 X37.374 Y79.093 E52.85856
G1 X35.902 Y79.638 E53.00124
G1 X34.495 Y80.212 E53.13947
G1 X33.084 Y80.842 E53.27992
G1 X32.168 Y81.288 E53.37259
G1 X31.072 Y81.859 E53.48498
G1 X30.133 Y82.388 E53.58299
G1 X29.167 Y82.973 E53.68569
G1 X28.216 Y83.593 E53.78896
G1 X27.262 Y84.266 E53.89508
G1 X26.354 Y84.958 E53.99885
G1 X25.444 Y85.711 E54.10628
G1 X24.556 Y86.508 E54.21472
G1 X23.717 Y87.328 E54.32143
G1 X22.885 Y88.217 E54.43216
G1 X22.123 Y89.106 E54.53863
G1 X21.288 Y90.183 E54.66259
G1 X20.621 Y91.126 E54.76755
G1 X19.990 Y92.115 E54.87426
G1 X19.292 Y93.325 E55.00132
G1 X18.704 Y94.476 E55.11876
G1 X18.161 Y95.677 E55.23864
G1 X17.780 Y96.641 E55.33289
G1 X17.475 Y96.583 E55.36109
G1 X17.475 Y20.999 E62.23389
G1 X16.850 Y20.314 F4800.000
G1 F1800
G1 X103.150 Y20.314 E70.08111
G1 X103.150 Y99.634 E77.29368
G1 X102.560 Y99.670 E77.34745
G1 X102.296 Y98.750 E77.43450
G1 X101.937 Y97.656 E77.53915
G1 X101.416 Y96.308 E77.67058
G1 X100.944 Y95.205 E77.77961
G1 X100.434 Y94.147 E77.88645
G1 X99.807 Y93.000 E78.00529
G1 X99.271 Y92.106 E78.10013
G1 X98.627 Y91.134 E78.20611
G1 X98.005 Y90.281 E78.30211
G1 X97.223 Y89.296 E78.41651
G1 X96.517 Y88.486 E78.51416
G1 X95.654 Y87.581 E78.62791
G1 X94.691 Y86.664 E78.74884
G1 X93.662 Y85.775 E78.87247
G1 X92.629 Y84.963 E78.99198
G1 X91.565 Y84.200 E79.11095
G1 X90.405 Y83.443 E79.23694
G1 X88.963 Y82.592 E79.38921
G1 X87.541 Y81.841 E79.53540
G1 X85.730 Y80.989 E79.71743
G1 X83.933 Y80.247 E79.89414
G1 X81.561 Y79.389 E80.12353
G1 X78.943 Y78.582 E80.37270
G1 X76.415 Y77.912 E80.61051
G1 X71.703 Y76.832 E81.05000
G1 X68.103 Y76.103 E81.38403
G1 X66.036 Y75.750 E81.57465
G1 X64.555 Y75.541 E81.71068
G1 X63.080 Y75.382 E81.84556
G1 X61.795 Y75.288 E81.96273
G1 X60.454 Y75.242 E82.08471
G1 X58.998 Y75.254 E82.21718
G1 X57.349 Y75.345 E82.36729
G1 X55.476 Y75.537 E82.53855
G1 X52.731 Y75.953 E82.79102
G1 X48.229 Y76.846 E83.20834
G1 X43.130 Y78.025 E83.68418
G1 X41.001 Y78.598 E83.88468
G1 X39.040 Y79.192 E84.07100
G1 X37.582 Y79.683 E84.21085
G1 X36.129 Y80.220 E84.35175
G1 X34.740 Y80.787 E84.48810
G1 X33.349 Y81.408 E84.62669
G1 X32.450 Y81.846 E84.71763
G1 X31.370 Y82.409 E84.82835
G1 X30.448 Y82.928 E84.92454
G1 X29.499 Y83.502 E85.02538
G1 X28.566 Y84.111 E85.12667
G1 X27.631 Y84.770 E85.23070
G1 X26.743 Y85.447 E85.33229
G1 X25.852 Y86.184 E85.43744
G1 X24.984 Y86.964 E85.54350
G1 X24.164 Y87.765 E85.64777
G1 X23.350 Y88.634 E85.75599
G1 X22.607 Y89.501 E85.85982
G1 X21.790 Y90.555 E85.98113
G1 X21.140 Y91.474 E86.08348
G1 X20.524 Y92.439 E86.18758
G1 X19.841 Y93.624 E86.31191
G1 X19.268 Y94.747 E86.42655
G1 X18.737 Y95.921 E86.54374
G1 X18.197 Y97.284 E86.67701
G1 X17.819 Y98.392 E86.78352
G1 X17.442 Y99.670 E86.90464
G1 X16.850 Y99.634 E86.95860
G1 X16.850 Y20.374 E94.16572
G1 X17.197 Y20.513 F4800.000
G1 E92.16572 F2400.00000
G92 E0
G1 X18.482 Y22.432 F4800.000
G1 E2.00000 F2400.00000
G1 F1800
G1 X18.968 Y21.946 E2.06258
G1 X19.853 Y21.946 E2.14314
G1 X18.482 Y23.317 E2.31969
G1 X18.482 Y24.202 E2.40025
G1 X20.738 Y21.946 E2.69073
G1 X21.623 Y21.946 E2.77129
G1 X18.482 Y25.086 E3.17570
G1 X18.482 Y25.971 E3.25626
G1 X22.507 Y21.946 E3.77459
G1 X23.392 Y21.946 E3.85515
G1 X18.482 Y26.856 E4.48742
G1 X18.482 Y27.741 E4.56798
G1 X24.277 Y21.946 E5.31417
G1 X25.162 Y21.946 E5.39473
G1 X18.482 Y28.626 E6.25486
G1 X18.482 Y29.511 E6.33542
G1 X26.047 Y21.946 E7.30947
G1 X26.932 Y21.946 E7.39003
G1 X18.482 Y30.395 E8.47801
G1 X18.482 Y31.280 E8.55857
G1 X27.816 Y21.946 E9.76048
G1 X28.701 Y21.946 E9.84104
G1 X18.482 Y32.165 E11.15688
G1 X18.482 Y33.050 E11.23744
G1 X29.586 Y21.946 E12.66720
G1 X30.471 Y21.946 E12.74776
G1 X18.482 Y33.935 E14.29146
G1 X18.482 Y34.820 E14.37202
G1 X31.356 Y21.946 E16.02965
G1 X32.241 Y21.946 E16.11021
G1 X18.482 Y35.705 E17.88176
G1 X18.482 Y36.589 E17.96232
G1 X33.125 Y21.946 E19.84780
G1 X34.010 Y21.946 E19.92836
G1 X18.482 Y37.474 E21.92777
G1 X18.482 Y38.359 E22.00833
G1 X34.895 Y21.946 E24.12167
G1 X35.780 Y21.946 E24.20223
G1 X18.482 Y39.244 E26.42950
G1 X18.482 Y40.129 E26.51006
G1 X36.665 Y21.946 E28.85126
G1 X37.550 Y21.946 E28.93182
G1 X18.482 Y41.014 E31.38695
G1 X18.482 Y41.898 E31.46751
G1 X38.435 Y21.946 E34.03657
G1 X39.319 Y21.946 E34.11713
G1 X18.482 Y42.783 E36.80011
G1 X18.482 Y43.668 E36.88067
G1 X40.204 Y21.946 E39.67758
G1 X41.089 Y21.946 E39.75814
G1 X18.482 Y44.553 E42.66899
G1 X18.482 Y45.438 E42.74955
G1 X41.974 Y21.946 E45.77432
G1 X42.859 Y21.946 E45.85488
G1 X18.482 Y46.323 E48.99358
G1 X18.482 Y47.207 E49.07414
G1 X43.744 Y21.946 E52.32677
G1 X44.628 Y21.946 E52.40733
G1 X18.482 Y48.092 E55.77389
G1 X18.482 Y48.977 E55.85445
G1 X45.513 Y21.946 E59.33493
G1 X46.398 Y21.946 E59.41549
G1 X18.482 Y49.862 E63.00991
G1 X18.482 Y50.747 E63.09047
G1 X47.283 Y21.946 E66.79881
G1 X48.168 Y21.946 E66.87937
G1 X18.482 Y51.632 E70.70165
G1 X18.482 Y52.517 E70.78221
G1 X49.053 Y21.946 E74.71841
G1 X49.937 Y21.946 E74.79897
G1 X18.482 Y53.401 E78.84910
G1 X18.482 Y54.286 E78.92966
G1 X50.822 Y21.946 E83.09372
G1 X51.707 Y21.946 E83.17428
G1 X18.482 Y55.171 E87.45227
G1 X18.482 Y56.056 E87.53283
G1 X52.592 Y21.946 E91.92475
G1 X53.477 Y21.946 E92.00531
G1 X18.482 Y56.941 E96.51116
G1 X18.482 Y57.826 E96.59172
G1 X54.362 Y21.946 E101.21149
G1 X55.247 Y21.946 E101.29205
G1 X18.482 Y58.710 E106.02576
G1 X18.482 Y59.595 E106.10632
G1 X56.131 Y21.946 E110.95395
G1 X57.016 Y21.946 E111.03451
G1 X18.482 Y60.480 E115.99607
G1 X18.482 Y61.365 E116.07663
G1 X57.901 Y21.946 E121.15212
G1 X58.786 Y21.946 E121.23268
G1 X18.482 Y62.250 E126.42210
G1 X18.482 Y63.135 E126.50266
G1 X59.671 Y21.946 E131.80601
G1 X60.556 Y21.946 E131.88657
G1 X18.482 Y64.019 E137.30385
G1 X18.482 Y64.904 E137.38441
G1 X61.440 Y21.946 E142.91562
G1 X62.325 Y21.946 E142.99618
G1 X18.482 Y65.789 E148.64131
G1 X18.482 Y66.674 E148.72187
G1 X63.210 Y21.946 E154.48094
G1 X64.095 Y21.946 E154.56150
G1 X18.482 Y67.559 E160.43449
G1 X18.482 Y68.444 E160.51505
G1 X64.980 Y21.946 E166.50197
G1 X65.865 Y21.946 E166.58253
G1 X18.482 Y69.329 E172.68338
G1 X18.482 Y70.213 E172.76394
G1 X66.749 Y21.946 E178.97873
G1 X67.634 Y21.946 E179.05929
G1 X18.482 Y71.098 E185.38799
G1 X18.482 Y71.983 E185.46855
G1 X68.519 Y21.946 E191.91119
G1 X69.404 Y21.946 E191.99175
G1 X18.482 Y72.868 E198.54832
G1 X18.482 Y73.753 E198.62888
G1 X70.289 Y21.946 E205.29937
G1 X71.174 Y21.946 E205.37993
G1 X18.482 Y74.638 E212.16436
G1 X18.482 Y75.522 E212.24492
G1 X72.059 Y21.946 E219.14327
G1 X72.943 Y21.946 E219.22383
G1 X18.482 Y76.407 E226.23611
G1 X18.482 Y77.292 E226.31667
G1 X73.828 Y21.946 E233.44288
G1 X74.713 Y21.946 E233.52345
G1 X18.482 Y78.177 E240.76359
G1 X18.482 Y79.062 E240.84415
G1 X75.598 Y21.946 E248.19821
G1 X76.483 Y21.946 E248.27877
G1 X18.482 Y79.947 E255.74677
G1 X18.482 Y80.831 E255.82733
G1 X77.368 Y21.946 E263.40926
G1 X78.252 Y21.946 E263.48982
G1 X18.482 Y81.716 E271.18567
G1 X18.482 Y82.601 E271.26623
G1 X79.137 Y21.946 E279.07602
G1 X80.022 Y21.946 E279.15658
G1 X18.482 Y83.486 E287.08029
G1 X18.482 Y84.371 E287.16085
G1 X80.907 Y21.946 E295.19849
G1 X81.792 Y21.946 E295.27905
G1 X18.482 Y85.256 E303.43062
G1 X18.482 Y86.141 E303.51118
G1 X82.677 Y21.946 E311.77668
G1 X83.561 Y21.946 E311.85724
G1 X18.482 Y87.025 E320.23667
G1 X18.482 Y87.910 E320.31723
G1 X84.446 Y21.946 E328.81059
G1 X85.331 Y21.946 E328.89115
G1 X18.482 Y88.795 E337.49844
G1 X18.482 Y89.680 E337.57900
G1 X86.216 Y21.946 E346.30021
G1 X87.101 Y21.946 E346.38077
G1 X18.482 Y90.565 E355.21592
G1 X18.482 Y91.450 E355.29648
G1 X19.536 Y90.396 E355.43219
G1 X20.040 Y89.682 E355.51174
G1 X20.911 Y88.559 E355.64113
G1 X21.711 Y87.626 E355.75304
G1 X22.581 Y86.697 E355.86894
G1 X23.459 Y85.839 E355.98067
G1 X24.384 Y85.007 E356.09400
G1 X25.334 Y84.222 E356.20615
G1 X26.279 Y83.501 E356.31440
G1 X26.791 Y83.140 E356.37136
G1 X87.986 Y21.946 E364.25059
G1 X88.871 Y21.946 E364.33115
G1 X29.271 Y81.546 E372.00501
G1 X30.234 Y81.003 E372.10564
G1 X31.202 Y80.499 E372.20504
G1 X89.755 Y21.946 E379.74414
G1 X90.640 Y21.946 E379.82470
G1 X32.892 Y79.693 E387.26008
G1 X33.761 Y79.305 E387.34667
G1 X34.444 Y79.027 E387.41380
G1 X91.525 Y21.946 E394.76338
G1 X92.410 Y21.946 E394.84394
G1 X35.894 Y78.461 E402.12070
G1 X37.269 Y77.971 E402.25357
G1 X93.295 Y21.946 E409.46725
G1 X94.180 Y21.946 E409.54781
G1 X38.584 Y77.541 E416.70604
G1 X39.854 Y77.156 E416.82678
G1 X95.064 Y21.946 E423.93551
G1 X95.949 Y21.946 E424.01607
G1 X41.082 Y76.813 E431.08054
G1 X42.293 Y76.487 E431.19469
G1 X96.834 Y21.946 E438.21719
G1 X97.719 Y21.946 E438.29775
G1 X43.451 Y76.214 E445.28511
G1 X44.602 Y75.948 E445.39267
G1 X98.604 Y21.946 E452.34576
G1 X99.489 Y21.946 E452.42632
G1 X45.753 Y75.681 E459.34514
G1 X46.904 Y75.415 E459.45270
G1 X100.373 Y21.946 E466.33726
G1 X101.258 Y21.946 E466.41782
G1 X48.036 Y75.168 E473.27055
G1 X49.139 Y74.949 E473.37300
G1 X101.518 Y22.570 E480.11711
G1 X101.518 Y23.455 E480.19767
G1 X50.243 Y74.730 E486.79966
G1 X51.347 Y74.511 E486.90211
G1 X101.518 Y24.340 E493.36199
G1 X101.518 Y25.225 E493.44255
G1 X52.435 Y74.308 E499.76235
