; generated by Slic3r 1.3.0 on 2020-11-23 at 17:24:22

; external perimeters extrusion width = 0.44mm (2.25mm^3/s)
; perimeters extrusion width = 0.48mm (5.03mm^3/s)
; infill extrusion width = 0.48mm (10.05mm^3/s)
; solid infill extrusion width = 0.48mm (2.51mm^3/s)
; top infill extrusion width = 0.48mm (1.88mm^3/s)

M107
M190 S65 ; set bed temperature and wait for it to be reached
M104 S210 ; set temperature
G28 ; home all axes
G1 Z5 F5000 ; lift nozzle

; Filament gcode

M109 S210 ; set temperature and wait for it to be reached
G21 ; set units to millimeters
G90 ; use absolute coordinates
M82 ; use absolute distances for extrusion
G92 E0
G1 Z0.350 F4800.000
G1 E-2.00000 F2400.00000
G92 E0
G1 X12.542 Y13.196 F4800.000
G1 E2.00000 F2400.00000
G1 F1800
G1 X14.828 Y11.959 E2.23641
G1 X17.171 Y11.481 E2.45386
G1 X17.699 Y11.464 E2.50188
G1 X102.301 Y11.464 E10.19466
G1 X102.828 Y11.481 E10.24258
G1 X105.368 Y12.032 E10.47899
G1 X107.624 Y13.325 E10.71540
G1 X109.383 Y15.240 E10.95182
G1 X110.480 Y17.597 E11.18823
G1 X110.817 Y19.965 E11.40570
G1 X110.816 Y100.036 E18.68657
G1 X110.419 Y102.606 E18.92298
G1 X109.263 Y104.934 E19.15939
G1 X107.457 Y106.805 E19.39580
G1 X105.170 Y108.042 E19.63221
G1 X102.317 Y108.536 E19.89554
G1 X17.683 Y108.536 E27.59122
G1 X15.114 Y108.138 E27.82763
G1 X12.785 Y106.982 E28.06405
G1 X10.914 Y105.177 E28.30046
G1 X9.677 Y102.890 E28.53687
G1 X9.184 Y100.036 E28.80020
G1 X9.183 Y19.965 E36.08104
G1 X9.580 Y17.396 E36.31746
G1 X10.736 Y15.067 E36.55387
G1 X12.500 Y13.239 E36.78482
G1 X13.148 Y13.527 F4800.000
G1 F1800
G1 X15.396 Y12.429 E37.01232
G1 X17.209 Y12.105 E37.17976
G1 X17.699 Y12.089 E37.22437
G1 X102.301 Y12.089 E44.91715
G1 X102.790 Y12.104 E44.96166
G1 X105.232 Y12.649 E45.18916
G1 X107.379 Y13.933 E45.41666
G1 X109.016 Y15.825 E45.64416
G1 X109.977 Y18.136 E45.87166
G1 X110.192 Y19.965 E46.03913
G1 X110.191 Y100.036 E53.32000
G1 X109.794 Y102.506 E53.54750
G1 X108.642 Y104.727 E53.77500
G1 X106.851 Y106.474 E54.00250
G1 X104.602 Y107.572 E54.23000
G1 X102.317 Y107.911 E54.44010
G1 X17.683 Y107.911 E62.13579
G1 X15.213 Y107.513 E62.36329
G1 X12.992 Y106.361 E62.59079
G1 X11.245 Y104.570 E62.81829
G1 X10.148 Y102.322 E63.04579
G1 X9.809 Y100.036 E63.25589
G1 X9.807 Y19.965 E70.53674
G1 X10.205 Y17.495 E70.76424
G1 X11.357 Y15.274 E70.99174
G1 X13.105 Y13.569 E71.21378
G1 X13.751 Y13.873 F4800.000
G1 F1800
G1 X15.955 Y12.924 E71.43201
G1 X17.246 Y12.728 E71.55077
G1 X17.699 Y12.714 E71.59196
G1 X102.301 Y12.714 E79.28474
G1 X102.752 Y12.728 E79.32583
G1 X105.091 Y13.267 E79.54406
G1 X107.126 Y14.539 E79.76229
G1 X108.634 Y16.407 E79.98052
G1 X109.449 Y18.664 E80.19875
G1 X109.567 Y19.965 E80.31753
G1 X109.566 Y100.036 E87.59839
G1 X109.169 Y102.403 E87.81662
G1 X108.021 Y104.511 E88.03484
G1 X106.248 Y106.128 E88.25307
G1 X104.044 Y107.077 E88.47130
G1 X102.317 Y107.286 E88.62946
G1 X17.683 Y107.286 E96.32514
G1 X15.316 Y106.889 E96.54337
G1 X13.209 Y105.740 E96.76159
G1 X11.592 Y103.967 E96.97982
G1 X10.642 Y101.763 E97.19805
G1 X10.434 Y100.036 E97.35621
G1 X10.432 Y19.965 E104.63705
G1 X10.830 Y17.598 E104.85528
G1 X11.978 Y15.491 E105.07351
G1 X13.707 Y13.914 E105.28628
G1 X14.350 Y14.239 F4800.000
G1 F1800
G1 X17.284 Y13.352 E105.56496
G1 X17.699 Y13.339 E105.60274
G1 X102.301 Y13.339 E113.29552
G1 X102.715 Y13.352 E113.33320
G1 X104.946 Y13.884 E113.54174
G1 X106.862 Y15.144 E113.75029
G1 X108.233 Y16.983 E113.95883
G1 X108.942 Y19.965 E114.23753
G1 X108.942 Y100.036 E121.51839
G1 X108.545 Y102.295 E121.72694
G1 X107.401 Y104.283 E121.93548
G1 X105.648 Y105.762 E122.14402
G1 X103.496 Y106.555 E122.35256
G1 X102.317 Y106.661 E122.46026
G1 X17.683 Y106.661 E130.15594
G1 X15.424 Y106.264 E130.36449
G1 X13.436 Y105.121 E130.57303
G1 X11.957 Y103.368 E130.78157
G1 X11.164 Y101.216 E130.99011
G1 X11.058 Y100.036 E131.09781
G1 X11.057 Y19.965 E138.37865
G1 X11.454 Y17.706 E138.58720
G1 X12.598 Y15.718 E138.79574
G1 X14.304 Y14.278 E138.99882
G1 E136.99882 F2400.00000
G92 E0
G1 X73.671 Y91.992 F4800.000
G1 E2.00000 F2400.00000
G1 F1800
G1 X74.212 Y91.681 E2.05673
G1 X74.803 Y91.482 E2.11345
G1 X75.422 Y91.404 E2.17018
G1 X76.044 Y91.451 E2.22690
G1 X76.645 Y91.620 E2.28363
G1 X77.200 Y91.904 E2.34036
G1 X77.687 Y92.293 E2.39708
G1 X78.088 Y92.771 E2.45381
G1 X78.387 Y93.319 E2.51053
G1 X78.565 Y93.898 E2.56557
G1 X78.628 Y94.407 E2.61223
G1 X78.598 Y95.004 E2.66659
G1 X78.444 Y95.608 E2.72323
G1 X78.173 Y96.170 E2.77996
G1 X77.796 Y96.667 E2.83668
G1 X77.329 Y97.080 E2.89341
G1 X76.788 Y97.392 E2.95014
G1 X76.197 Y97.590 E3.00686
G1 X75.578 Y97.668 E3.06358
G1 X74.956 Y97.621 E3.12031
G1 X74.355 Y97.452 E3.17704
G1 X73.800 Y97.168 E3.23376
G1 X73.313 Y96.779 E3.29049
G1 X72.912 Y96.301 E3.34721
G1 X72.613 Y95.753 E3.40394
G1 X72.435 Y95.175 E3.45898
G1 X72.372 Y94.665 E3.50564
G1 X72.402 Y94.068 E3.56000
G1 X72.556 Y93.465 E3.61664
G1 X72.827 Y92.903 E3.67337
G1 X73.204 Y92.405 E3.73009
G1 X73.626 Y92.032 E3.78136
G1 X74.038 Y92.502 F4800.000
G1 F1800
G1 X74.470 Y92.253 E3.82672
G1 X74.943 Y92.094 E3.87207
G1 X75.438 Y92.032 E3.91743
G1 X75.935 Y92.069 E3.96278
G1 X76.415 Y92.204 E4.00813
G1 X76.859 Y92.432 E4.05349
G1 X77.249 Y92.743 E4.09884
G1 X77.570 Y93.125 E4.14420
G1 X77.808 Y93.563 E4.18955
G1 X77.952 Y94.029 E4.23388
G1 X78.001 Y94.429 E4.27056
G1 X77.977 Y94.910 E4.31432
G1 X77.854 Y95.393 E4.35962
G1 X77.637 Y95.842 E4.40497
G1 X77.336 Y96.240 E4.45033
G1 X76.962 Y96.570 E4.49568
G1 X76.530 Y96.819 E4.54104
G1 X76.057 Y96.978 E4.58639
G1 X75.562 Y97.040 E4.63175
G1 X75.065 Y97.003 E4.67710
G1 X74.585 Y96.868 E4.72246
G1 X74.141 Y96.640 E4.76781
G1 X73.751 Y96.329 E4.81316
G1 X73.430 Y95.947 E4.85852
G1 X73.192 Y95.509 E4.90387
G1 X73.048 Y95.043 E4.94820
G1 X72.999 Y94.643 E4.98489
G1 X73.023 Y94.162 E5.02864
G1 X73.146 Y93.679 E5.07394
G1 X73.363 Y93.230 E5.11930
G1 X73.664 Y92.832 E5.16465
G1 X73.993 Y92.542 E5.20455
G1 X74.404 Y93.012 F4800.000
G1 F1800
G1 X74.728 Y92.825 E5.23853
G1 X75.082 Y92.706 E5.27252
G1 X75.453 Y92.660 E5.30650
G1 X75.826 Y92.688 E5.34048
G1 X76.186 Y92.789 E5.37446
G1 X76.518 Y92.960 E5.40845
G1 X76.810 Y93.193 E5.44243
G1 X77.051 Y93.479 E5.47641
G1 X77.229 Y93.807 E5.51040
G1 X77.338 Y94.160 E5.54401
G1 X77.374 Y94.452 E5.57072
G1 X77.356 Y94.816 E5.60387
G1 X77.264 Y95.178 E5.63784
G1 X77.101 Y95.515 E5.67182
G1 X76.876 Y95.813 E5.70580
G1 X76.596 Y96.060 E5.73979
G1 X76.272 Y96.247 E5.77377
G1 X75.918 Y96.366 E5.80775
G1 X75.547 Y96.412 E5.84173
G1 X75.174 Y96.384 E5.87572
G1 X74.814 Y96.283 E5.90970
G1 X74.482 Y96.113 E5.94368
G1 X74.190 Y95.880 E5.97766
G1 X73.949 Y95.593 E6.01165
G1 X73.771 Y95.265 E6.04563
G1 X73.662 Y94.912 E6.07925
G1 X73.626 Y94.620 E6.10596
G1 X73.644 Y94.256 E6.13911
G1 X73.736 Y93.894 E6.17307
G1 X73.899 Y93.557 E6.20706
G1 X74.124 Y93.260 E6.24104
G1 X74.359 Y93.052 E6.26956
G1 X74.404 Y93.012 F4800.000
G1 E4.26956 F2400.00000
G92 E0
G1 X70.128 Y88.841 F4800.000
G1 E2.00000 F2400.00000
G1 F1800
G1 X69.845 Y89.130 E2.03675
G1 X69.330 Y89.608 E2.10068
G1 X68.791 Y90.060 E2.16461
G1 X68.231 Y90.485 E2.22854
G1 X67.650 Y90.881 E2.29247
G1 X67.050 Y91.247 E2.35639
G1 X66.433 Y91.584 E2.42032
G1 X65.799 Y91.889 E2.48425
G1 X65.151 Y92.162 E2.54818
G1 X64.491 Y92.402 E2.61211
G1 X63.819 Y92.609 E2.67604
G1 X63.138 Y92.783 E2.73997
G1 X62.448 Y92.922 E2.80390
G1 X61.753 Y93.027 E2.86783
G1 X61.054 Y93.097 E2.93175
G1 X60.352 Y93.132 E2.99568
G1 X59.648 Y93.132 E3.05961
G1 X58.946 Y93.097 E3.12354
G1 X58.247 Y93.027 E3.18747
G1 X57.552 Y92.922 E3.25140
G1 X56.862 Y92.783 E3.31533
G1 X56.181 Y92.609 E3.37926
G1 X55.509 Y92.402 E3.44319
G1 X54.849 Y92.162 E3.50711
G1 X54.201 Y91.889 E3.57104
G1 X53.567 Y91.584 E3.63497
G1 X52.950 Y91.247 E3.69890
G1 X52.350 Y90.881 E3.76283
G1 X51.769 Y90.485 E3.82676
G1 X51.209 Y90.060 E3.89069
G1 X50.670 Y89.608 E3.95462
G1 X50.155 Y89.130 E4.01854
G1 X49.664 Y88.627 E4.08247
G1 X49.199 Y88.100 E4.14640
G1 X48.760 Y87.550 E4.21033
G1 X48.350 Y86.979 E4.27426
G1 X47.968 Y86.388 E4.33819
G1 X47.617 Y85.780 E4.40212
G1 X47.296 Y85.154 E4.46605
G1 X47.007 Y84.513 E4.52998
G1 X46.750 Y83.859 E4.59390
G1 X46.526 Y83.192 E4.65783
G1 X46.336 Y82.515 E4.72176
G1 X46.179 Y81.830 E4.78569
G1 X46.057 Y81.138 E4.84962
G1 X45.970 Y80.438 E4.91375
G1 X45.916 Y79.700 E4.98098
G1 X45.900 Y79.036 E5.04140
G1 X45.917 Y78.333 E5.10533
G1 X45.970 Y77.632 E5.16926
G1 X46.057 Y76.935 E5.23319
G1 X46.179 Y76.242 E5.29712
G1 X46.336 Y75.557 E5.36105
G1 X46.526 Y74.880 E5.42498
G1 X46.750 Y74.214 E5.48890
G1 X47.007 Y73.559 E5.55283
G1 X47.296 Y72.918 E5.61676
G1 X47.617 Y72.293 E5.68069
G1 X47.968 Y71.684 E5.74462
G1 X48.350 Y71.093 E5.80855
G1 X48.760 Y70.522 E5.87248
G1 X49.199 Y69.973 E5.93641
G1 X49.664 Y69.445 E6.00034
G1 X50.155 Y68.942 E6.06426
G1 X50.670 Y68.464 E6.12819
G1 X51.209 Y68.012 E6.19212
G1 X51.769 Y67.588 E6.25605
G1 X52.350 Y67.191 E6.31998
G1 X52.950 Y66.825 E6.38391
G1 X53.567 Y66.489 E6.44784
G1 X54.201 Y66.184 E6.51177
G1 X54.849 Y65.911 E6.57570
G1 X55.509 Y65.670 E6.63962
G1 X56.181 Y65.463 E6.70355
G1 X56.862 Y65.289 E6.76748
G1 X57.551 Y65.150 E6.83141
G1 X58.247 Y65.045 E6.89534
G1 X58.946 Y64.975 E6.95927
G1 X59.648 Y64.940 E7.02320
G1 X60.352 Y64.940 E7.08713
G1 X61.054 Y64.975 E7.15106
G1 X61.753 Y65.045 E7.21498
G1 X62.448 Y65.150 E7.27891
G1 X63.138 Y65.289 E7.34284
G1 X63.819 Y65.463 E7.40677
G1 X64.491 Y65.670 E7.47070
G1 X65.151 Y65.911 E7.53463
G1 X65.799 Y66.184 E7.59856
G1 X66.433 Y66.489 E7.66249
G1 X67.050 Y66.825 E7.72642
G1 X67.650 Y67.191 E7.79034
G1 X68.231 Y67.588 E7.85427
G1 X68.791 Y68.012 E7.91820
G1 X69.330 Y68.464 E7.98213
G1 X69.845 Y68.942 E8.04606
G1 X70.336 Y69.445 E8.10999
G1 X70.801 Y69.973 E8.17392
G1 X71.240 Y70.522 E8.23785
G1 X71.650 Y71.093 E8.30178
G1 X72.032 Y71.684 E8.36570
G1 X72.383 Y72.293 E8.42963
G1 X72.704 Y72.918 E8.49356
G1 X72.993 Y73.559 E8.55749
G1 X73.250 Y74.214 E8.62142
G1 X73.474 Y74.880 E8.68535
G1 X73.664 Y75.557 E8.74928
G1 X73.821 Y76.242 E8.81321
G1 X73.943 Y76.935 E8.87714
G1 X74.030 Y77.634 E8.94126
G1 X74.084 Y78.372 E9.00849
G1 X74.100 Y79.036 E9.06892
G1 X74.083 Y79.739 E9.13285
G1 X74.030 Y80.440 E9.19678
G1 X73.943 Y81.138 E9.26070
G1 X73.821 Y81.830 E9.32463
G1 X73.664 Y82.515 E9.38856
G1 X73.474 Y83.192 E9.45249
G1 X73.250 Y83.859 E9.51642
G1 X72.993 Y84.513 E9.58035
G1 X72.704 Y85.154 E9.64428
G1 X72.383 Y85.780 E9.70821
G1 X72.032 Y86.388 E9.77214
G1 X71.650 Y86.979 E9.83606
G1 X71.240 Y87.550 E9.89999
G1 X70.801 Y88.100 E9.96392
G1 X70.169 Y88.798 E10.04955
G1 X69.680 Y88.404 F4800.000
G1 F1800
G1 X68.916 Y89.140 E10.14595
G1 X68.402 Y89.571 E10.20705
G1 X67.866 Y89.977 E10.26814
G1 X67.311 Y90.356 E10.32924
G1 X66.738 Y90.706 E10.39033
G1 X66.148 Y91.027 E10.45143
G1 X65.542 Y91.319 E10.51252
G1 X64.923 Y91.580 E10.57362
G1 X64.292 Y91.810 E10.63471
G1 X63.650 Y92.008 E10.69581
G1 X62.999 Y92.173 E10.75690
G1 X62.340 Y92.307 E10.81800
G1 X61.676 Y92.407 E10.87909
G1 X61.007 Y92.474 E10.94019
G1 X60.336 Y92.507 E11.00128
G1 X59.664 Y92.507 E11.06238
G1 X58.993 Y92.474 E11.12347
G1 X58.324 Y92.407 E11.18457
G1 X57.660 Y92.307 E11.24566
G1 X57.001 Y92.173 E11.30676
G1 X56.350 Y92.008 E11.36785
G1 X55.708 Y91.810 E11.42895
G1 X55.077 Y91.580 E11.49004
G1 X54.458 Y91.319 E11.55113
G1 X53.852 Y91.027 E11.61223
G1 X53.262 Y90.706 E11.67332
G1 X52.689 Y90.356 E11.73442
G1 X52.134 Y89.977 E11.79551
G1 X51.598 Y89.571 E11.85661
G1 X51.084 Y89.140 E11.91770
G1 X50.591 Y88.683 E11.97880
G1 X50.122 Y88.202 E12.03989
G1 X49.677 Y87.698 E12.10099
G1 X49.258 Y87.172 E12.16208
G1 X48.866 Y86.627 E12.22318
G1 X48.502 Y86.063 E12.28427
G1 X48.166 Y85.481 E12.34537
G1 X47.859 Y84.883 E12.40646
G1 X47.583 Y84.270 E12.46756
G1 X47.337 Y83.645 E12.52865
G1 X47.123 Y83.008 E12.58975
G1 X46.941 Y82.361 E12.65084
G1 X46.792 Y81.706 E12.71194
G1 X46.675 Y81.044 E12.77303
G1 X46.592 Y80.376 E12.83425
G1 X46.541 Y79.670 E12.89864
G1 X46.525 Y79.036 E12.95631
G1 X46.542 Y78.364 E13.01741
G1 X46.592 Y77.694 E13.07850
G1 X46.675 Y77.028 E13.13960
G1 X46.792 Y76.366 E13.20069
G1 X46.941 Y75.711 E13.26179
G1 X47.123 Y75.064 E13.32288
G1 X47.337 Y74.427 E13.38398
G1 X47.583 Y73.802 E13.44507
G1 X47.859 Y73.189 E13.50616
G1 X48.166 Y72.592 E13.56726
G1 X48.502 Y72.010 E13.62836
G1 X48.866 Y71.445 E13.68945
G1 X49.258 Y70.900 E13.75054
G1 X49.677 Y70.374 E13.81164
G1 X50.122 Y69.871 E13.87273
G1 X50.591 Y69.390 E13.93383
G1 X51.084 Y68.933 E13.99492
G1 X51.598 Y68.501 E14.05602
G1 X52.134 Y68.095 E14.11711
G1 X52.689 Y67.717 E14.17821
G1 X53.262 Y67.366 E14.23930
G1 X53.852 Y67.045 E14.30040
G1 X54.458 Y66.753 E14.36149
G1 X55.077 Y66.492 E14.42259
G1 X55.708 Y66.263 E14.48368
G1 X56.350 Y66.065 E14.54478
G1 X57.001 Y65.899 E14.60587
G1 X57.660 Y65.766 E14.66697
G1 X58.324 Y65.665 E14.72806
G1 X58.993 Y65.599 E14.78916
G1 X59.664 Y65.565 E14.85025
G1 X60.336 Y65.565 E14.91135
G1 X61.007 Y65.599 E14.97244
G1 X61.676 Y65.665 E15.03354
G1 X62.340 Y65.766 E15.09463
G1 X62.999 Y65.899 E15.15573
G1 X63.650 Y66.065 E15.21682
G1 X64.292 Y66.263 E15.27792
G1 X64.923 Y66.492 E15.33901
G1 X65.542 Y66.753 E15.40010
G1 X66.148 Y67.045 E15.46120
G1 X66.738 Y67.366 E15.52229
G1 X67.311 Y67.717 E15.58339
G1 X67.866 Y68.095 E15.64448
G1 X68.402 Y68.501 E15.70558
G1 X68.916 Y68.933 E15.76667
G1 X69.409 Y69.390 E15.82777
G1 X69.878 Y69.871 E15.88886
G1 X70.323 Y70.374 E15.94996
G1 X70.742 Y70.900 E16.01105
G1 X71.134 Y71.445 E16.07215
G1 X71.498 Y72.010 E16.13324
G1 X71.834 Y72.592 E16.19434
G1 X72.141 Y73.189 E16.25543
G1 X72.417 Y73.802 E16.31653
G1 X72.663 Y74.427 E16.37762
G1 X72.877 Y75.064 E16.43872
G1 X73.058 Y75.711 E16.49981
G1 X73.208 Y76.366 E16.56091
G1 X73.325 Y77.028 E16.62200
G1 X73.408 Y77.696 E16.68322
G1 X73.459 Y78.402 E16.74761
G1 X73.475 Y79.036 E16.80528
G1 X73.458 Y79.708 E16.86638
G1 X73.408 Y80.378 E16.92747
G1 X73.325 Y81.044 E16.98857
G1 X73.208 Y81.706 E17.04966
G1 X73.058 Y82.361 E17.11076
G1 X72.877 Y83.008 E17.17185
G1 X72.663 Y83.645 E17.23295
G1 X72.417 Y84.270 E17.29404
G1 X72.141 Y84.883 E17.35514
G1 X71.834 Y85.481 E17.41623
G1 X71.498 Y86.063 E17.47733
G1 X71.134 Y86.627 E17.53842
G1 X70.742 Y87.172 E17.59952
G1 X70.323 Y87.698 E17.66061
G1 X69.722 Y88.361 E17.74199
G1 X69.233 Y87.968 F4800.000
G1 F1800
G1 X68.503 Y88.671 E17.83414
G1 X68.012 Y89.083 E17.89240
G1 X67.501 Y89.470 E17.95066
G1 X66.972 Y89.831 E18.00892
G1 X66.425 Y90.165 E18.06719
G1 X65.862 Y90.471 E18.12545
G1 X65.285 Y90.749 E18.18371
G1 X64.695 Y90.998 E18.24197
G1 X64.093 Y91.217 E18.30023
G1 X63.480 Y91.406 E18.35849
G1 X62.859 Y91.564 E18.41675
G1 X62.231 Y91.691 E18.47501
G1 X61.598 Y91.786 E18.53327
G1 X60.960 Y91.850 E18.59153
G1 X60.320 Y91.882 E18.64979
G1 X59.680 Y91.882 E18.70805
G1 X59.040 Y91.850 E18.76631
G1 X58.402 Y91.786 E18.82457
G1 X57.769 Y91.691 E18.88284
G1 X57.141 Y91.564 E18.94110
G1 X56.520 Y91.406 E18.99936
G1 X55.907 Y91.217 E19.05762
G1 X55.305 Y90.998 E19.11588
G1 X54.715 Y90.749 E19.17414
G1 X54.138 Y90.471 E19.23240
G1 X53.575 Y90.165 E19.29066
G1 X53.028 Y89.831 E19.34892
G1 X52.499 Y89.470 E19.40718
G1 X51.988 Y89.083 E19.46544
G1 X51.497 Y88.671 E19.52370
G1 X51.028 Y88.235 E19.58197
G1 X50.580 Y87.776 E19.64023
G1 X50.156 Y87.296 E19.69849
G1 X49.757 Y86.795 E19.75675
G1 X49.383 Y86.275 E19.81501
G1 X49.035 Y85.737 E19.87327
G1 X48.715 Y85.182 E19.93153
G1 X48.422 Y84.612 E19.98979
G1 X48.159 Y84.028 E20.04805
G1 X47.925 Y83.431 E20.10631
G1 X47.721 Y82.824 E20.16457
G1 X47.547 Y82.207 E20.22283
G1 X47.405 Y81.582 E20.28109
G1 X47.293 Y80.951 E20.33936
G1 X47.214 Y80.315 E20.39766
G1 X47.165 Y79.640 E20.45922
G1 X47.150 Y79.036 E20.51413
G1 X47.166 Y78.396 E20.57239
G1 X47.214 Y77.757 E20.63066
G1 X47.293 Y77.121 E20.68892
G1 X47.405 Y76.490 E20.74718
G1 X47.547 Y75.865 E20.80544
G1 X47.721 Y75.248 E20.86370
G1 X47.925 Y74.641 E20.92196
G1 X48.159 Y74.045 E20.98022
G1 X48.422 Y73.461 E21.03848
G1 X48.715 Y72.890 E21.09674
G1 X49.035 Y72.336 E21.15500
G1 X49.383 Y71.797 E21.21326
G1 X49.757 Y71.277 E21.27152
G1 X50.156 Y70.776 E21.32978
G1 X50.580 Y70.296 E21.38805
G1 X51.028 Y69.837 E21.44631
