; generated by Slic3r 1.3.0 on 2020-11-25 at 17:59:37

; external perimeters extrusion width = 0.44mm (2.25mm^3/s)
; perimeters extrusion width = 0.48mm (5.03mm^3/s)
; infill extrusion width = 0.48mm (10.05mm^3/s)
; solid infill extrusion width = 0.48mm (2.51mm^3/s)
; top infill extrusion width = 0.48mm (1.88mm^3/s)

M107
M190 S65 ; set bed temperature and wait for it to be reached
M104 S210 ; set temperature
G28 ; home all axes
G1 Z5 F5000 ; lift nozzle

; Filament gcode

M109 S210 ; set temperature and wait for it to be reached
G21 ; set units to millimeters
G90 ; use absolute coordinates
M82 ; use absolute distances for extrusion
G92 E0
G1 Z0.350 F4800.000
G1 E-2.00000 F2400.00000
G92 E0
G1 X6.661 Y28.329 F4800.000
G1 E2.00000 F2400.00000
G1 F1800
G1 X30.161 Y18.329 E4.32227
G1 X33.000 Y17.750 E4.58570
G1 X87.000 Y17.750 E9.49590
G1 X89.839 Y18.329 E9.75933
G1 X113.339 Y28.329 E12.08160
G1 X115.361 Y29.621 E12.29983
G1 X116.851 Y31.503 E12.51805
G1 X117.644 Y33.768 E12.73628
G1 X117.750 Y35.000 E12.84872
G1 X117.750 Y95.000 E18.30449
G1 X117.353 Y97.367 E18.52272
G1 X116.204 Y99.474 E18.74095
G1 X114.431 Y101.091 E18.95917
G1 X112.227 Y102.041 E19.17740
G1 X110.500 Y102.250 E19.33557
G1 X9.500 Y102.250 E28.51946
G1 X7.133 Y101.853 E28.73769
G1 X5.026 Y100.704 E28.95591
G1 X3.409 Y98.931 E29.17414
G1 X2.459 Y96.727 E29.39237
G1 X2.250 Y95.000 E29.55054
G1 X2.250 Y35.000 E35.00632
G1 X2.647 Y32.633 E35.22454
G1 X3.796 Y30.526 E35.44277
G1 X5.569 Y28.909 E35.66100
G1 X6.608 Y28.357 E35.76798
G1 X6.906 Y28.904 F4800.000
G1 F1800
G1 X30.406 Y18.904 E38.09024
G1 X33.000 Y18.375 E38.33097
G1 X87.000 Y18.375 E43.24117
G1 X89.594 Y18.904 E43.48189
G1 X113.094 Y28.904 E45.80416
G1 X115.017 Y30.154 E46.01270
G1 X116.399 Y31.984 E46.22125
G1 X117.125 Y35.000 E46.50330
G1 X117.125 Y95.000 E51.95907
G1 X116.728 Y97.259 E52.16761
G1 X115.585 Y99.247 E52.37616
G1 X113.832 Y100.726 E52.58470
G1 X111.680 Y101.519 E52.79324
G1 X110.500 Y101.625 E52.90095
G1 X9.500 Y101.625 E62.08484
G1 X7.241 Y101.228 E62.29338
G1 X5.253 Y100.085 E62.50192
G1 X3.774 Y98.332 E62.71046
G1 X2.981 Y96.180 E62.91901
G1 X2.875 Y95.000 E63.02672
G1 X2.875 Y35.000 E68.48249
G1 X3.272 Y32.741 E68.69103
G1 X4.415 Y30.753 E68.89958
G1 X6.858 Y28.940 E69.17617
G1 E67.17617 F2400.00000
G92 E0
G1 X104.333 Y84.086 F4800.000
G1 E2.00000 F2400.00000
G1 F1800
G1 X104.555 Y83.679 E2.04218
G1 X104.779 Y83.397 E2.07493
G1 X105.127 Y83.091 E2.11712
G1 X105.533 Y82.856 E2.15970
G1 X105.977 Y82.707 E2.20228
G1 X106.441 Y82.649 E2.24487
G1 X106.908 Y82.684 E2.28745
G1 X107.359 Y82.811 E2.33004
G1 X107.776 Y83.024 E2.37262
G1 X108.142 Y83.316 E2.41520
G1 X108.443 Y83.675 E2.45779
G1 X108.667 Y84.086 E2.50037
G1 X108.805 Y84.534 E2.54296
G1 X108.852 Y85.000 E2.58554
G1 X108.805 Y85.466 E2.62812
G1 X108.667 Y85.913 E2.67070
G1 X108.447 Y86.318 E2.71255
G1 X108.221 Y86.602 E2.74562
G1 X107.873 Y86.909 E2.78782
G1 X107.467 Y87.144 E2.83041
G1 X107.023 Y87.293 E2.87299
G1 X106.559 Y87.351 E2.91557
G1 X106.092 Y87.316 E2.95816
G1 X105.641 Y87.189 E3.00074
G1 X105.224 Y86.976 E3.04333
G1 X104.858 Y86.684 E3.08591
G1 X104.557 Y86.325 E3.12849
G1 X104.333 Y85.913 E3.17108
G1 X104.195 Y85.466 E3.21366
G1 X104.148 Y85.000 E3.25625
G1 X104.195 Y84.534 E3.29883
G1 X104.315 Y84.144 E3.33596
G1 X104.333 Y84.086 F4800.000
G1 E1.33596 F2400.00000
G92 E0
G1 X102.608 Y47.350 F4800.000
G1 E2.00000 F2400.00000
G1 F1800
G1 X102.175 Y47.340 E2.03945
G1 X101.722 Y47.283 E2.08098
G1 X101.054 Y47.110 E2.14363
G1 X100.353 Y46.787 E2.21390
G1 X99.960 Y46.533 E2.25643
G1 X99.620 Y46.263 E2.29588
G1 X99.310 Y45.960 E2.33533
G1 X99.031 Y45.628 E2.37478
G1 X98.787 Y45.269 E2.41422
G1 X98.579 Y44.888 E2.45367
G1 X98.411 Y44.488 E2.49312
G1 X98.283 Y44.074 E2.53257
G1 X98.197 Y43.649 E2.57202
G1 X98.154 Y43.217 E2.61147
G1 X98.154 Y42.783 E2.65091
G1 X98.197 Y42.351 E2.69036
G1 X98.283 Y41.926 E2.72981
G1 X98.411 Y41.512 E2.76926
G1 X98.579 Y41.112 E2.80871
G1 X98.787 Y40.731 E2.84816
G1 X99.031 Y40.372 E2.88760
G1 X99.310 Y40.040 E2.92705
G1 X99.620 Y39.737 E2.96650
G1 X99.960 Y39.467 E3.00595
G1 X100.324 Y39.231 E3.04540
G1 X100.710 Y39.033 E3.08485
G1 X101.114 Y38.875 E3.12430
G1 X101.532 Y38.757 E3.16374
G1 X101.959 Y38.682 E3.20319
G1 X102.392 Y38.650 E3.24264
G1 X102.825 Y38.660 E3.28209
G1 X103.256 Y38.714 E3.32154
G1 X103.679 Y38.811 E3.36099
G1 X104.090 Y38.949 E3.40044
G1 X104.485 Y39.127 E3.43988
G1 X104.879 Y39.355 E3.48123
G1 X105.370 Y39.727 E3.53723
G1 X105.690 Y40.040 E3.57798
G1 X105.969 Y40.372 E3.61740
G1 X106.213 Y40.731 E3.65685
G1 X106.421 Y41.112 E3.69630
G1 X106.589 Y41.512 E3.73574
G1 X106.717 Y41.926 E3.77519
G1 X106.803 Y42.351 E3.81464
G1 X106.846 Y42.783 E3.85409
G1 X106.846 Y43.217 E3.89354
G1 X106.803 Y43.649 E3.93299
G1 X106.717 Y44.074 E3.97244
G1 X106.589 Y44.488 E4.01188
G1 X106.421 Y44.888 E4.05133
G1 X106.213 Y45.269 E4.09078
G1 X105.969 Y45.628 E4.13023
G1 X105.690 Y45.960 E4.16967
G1 X105.380 Y46.263 E4.20913
G1 X105.040 Y46.533 E4.24857
G1 X104.676 Y46.769 E4.28802
G1 X104.297 Y46.963 E4.32675
G1 X103.926 Y47.113 E4.36311
G1 X103.470 Y47.242 E4.40619
G1 X103.041 Y47.318 E4.44582
G1 X102.668 Y47.346 E4.47982
G1 X102.593 Y46.725 F4800.000
G1 F1800
G1 X102.222 Y46.716 E4.51359
G1 X101.839 Y46.668 E4.54864
G1 X101.265 Y46.519 E4.60256
G1 X100.654 Y46.238 E4.66370
G1 X100.325 Y46.025 E4.69935
G1 X100.034 Y45.794 E4.73313
G1 X99.769 Y45.534 E4.76691
G1 X99.530 Y45.250 E4.80068
G1 X99.321 Y44.943 E4.83446
G1 X99.143 Y44.617 E4.86824
G1 X98.999 Y44.274 E4.90201
G1 X98.889 Y43.919 E4.93579
G1 X98.816 Y43.555 E4.96957
G1 X98.779 Y43.186 E5.00334
G1 X98.779 Y42.814 E5.03712
G1 X98.816 Y42.445 E5.07090
G1 X98.889 Y42.081 E5.10468
G1 X98.999 Y41.726 E5.13845
G1 X99.143 Y41.383 E5.17223
G1 X99.321 Y41.057 E5.20601
G1 X99.530 Y40.750 E5.23978
G1 X99.769 Y40.466 E5.27356
G1 X100.034 Y40.206 E5.30734
G1 X100.325 Y39.975 E5.34111
G1 X100.637 Y39.773 E5.37489
G1 X100.967 Y39.604 E5.40867
G1 X101.313 Y39.468 E5.44244
G1 X101.671 Y39.367 E5.47622
G1 X102.037 Y39.303 E5.51000
G1 X102.407 Y39.275 E5.54377
G1 X102.778 Y39.284 E5.57755
G1 X103.147 Y39.331 E5.61133
G1 X103.509 Y39.413 E5.64510
G1 X103.861 Y39.531 E5.67888
G1 X104.200 Y39.684 E5.71266
G1 X104.533 Y39.876 E5.74759
G1 X104.961 Y40.202 E5.79649
G1 X105.232 Y40.466 E5.83089
G1 X105.470 Y40.750 E5.86464
G1 X105.679 Y41.057 E5.89842
G1 X105.857 Y41.383 E5.93220
G1 X106.001 Y41.726 E5.96597
G1 X106.111 Y42.081 E5.99975
G1 X106.184 Y42.445 E6.03353
G1 X106.221 Y42.814 E6.06730
G1 X106.221 Y43.186 E6.10108
G1 X106.184 Y43.555 E6.13486
G1 X106.111 Y43.919 E6.16864
G1 X106.001 Y44.274 E6.20241
G1 X105.857 Y44.617 E6.23619
G1 X105.679 Y44.943 E6.26997
G1 X105.470 Y45.250 E6.30374
G1 X105.231 Y45.534 E6.33752
G1 X104.966 Y45.794 E6.37130
G1 X104.675 Y46.025 E6.40507
G1 X104.363 Y46.227 E6.43885
G1 X104.037 Y46.394 E6.47219
G1 X103.723 Y46.521 E6.50295
G1 X103.330 Y46.632 E6.54007
G1 X102.963 Y46.697 E6.57396
G1 X102.653 Y46.720 E6.60229
G1 X102.577 Y46.099 F4800.000
G1 F1800
G1 X102.268 Y46.092 E6.63039
G1 X101.957 Y46.053 E6.65895
G1 X101.476 Y45.928 E6.70413
G1 X100.956 Y45.689 E6.75615
G1 X100.690 Y45.517 E6.78493
G1 X100.448 Y45.325 E6.81303
G1 X100.227 Y45.109 E6.84114
G1 X100.029 Y44.872 E6.86924
G1 X99.854 Y44.617 E6.89735
G1 X99.707 Y44.345 E6.92545
G1 X99.587 Y44.060 E6.95356
G1 X99.495 Y43.765 E6.98166
G1 X99.434 Y43.462 E7.00977
G1 X99.403 Y43.155 E7.03787
G1 X99.403 Y42.845 E7.06598
G1 X99.434 Y42.538 E7.09408
G1 X99.495 Y42.235 E7.12219
G1 X99.587 Y41.940 E7.15029
G1 X99.707 Y41.655 E7.17840
G1 X99.854 Y41.383 E7.20651
G1 X100.029 Y41.128 E7.23461
G1 X100.227 Y40.891 E7.26272
G1 X100.448 Y40.675 E7.29082
G1 X100.690 Y40.483 E7.31893
G1 X100.950 Y40.315 E7.34703
G1 X101.225 Y40.174 E7.37514
G1 X101.513 Y40.061 E7.40324
G1 X101.810 Y39.977 E7.43135
G1 X102.114 Y39.924 E7.45945
G1 X102.423 Y39.901 E7.48756
G1 X102.732 Y39.908 E7.51566
G1 X103.038 Y39.947 E7.54377
G1 X103.340 Y40.015 E7.57187
G1 X103.633 Y40.114 E7.59998
G1 X103.914 Y40.241 E7.62808
G1 X104.186 Y40.398 E7.65661
G1 X104.552 Y40.676 E7.69839
G1 X104.773 Y40.891 E7.72644
G1 X104.971 Y41.128 E7.75454
G1 X105.146 Y41.383 E7.78264
G1 X105.293 Y41.655 E7.81075
G1 X105.413 Y41.940 E7.83886
G1 X105.505 Y42.235 E7.86696
G1 X105.566 Y42.538 E7.89507
G1 X105.597 Y42.845 E7.92317
G1 X105.597 Y43.155 E7.95128
G1 X105.566 Y43.462 E7.97938
G1 X105.505 Y43.765 E8.00749
G1 X105.413 Y44.060 E8.03559
G1 X105.293 Y44.345 E8.06370
G1 X105.146 Y44.617 E8.09180
G1 X104.971 Y44.872 E8.11991
G1 X104.773 Y45.109 E8.14801
G1 X104.552 Y45.325 E8.17612
G1 X104.310 Y45.517 E8.20422
G1 X104.050 Y45.685 E8.23233
G1 X103.777 Y45.825 E8.26028
G1 X103.520 Y45.929 E8.28544
G1 X103.190 Y46.023 E8.31661
G1 X102.886 Y46.076 E8.34476
G1 X102.637 Y46.095 E8.36741
G1 X102.577 Y46.099 F4800.000
G1 E6.36741 F2400.00000
G92 E0
G1 X21.846 Y43.217 F4800.000
G1 E2.00000 F2400.00000
G1 F1800
G1 X21.803 Y43.649 E2.03945
G1 X21.717 Y44.074 E2.07890
G1 X21.589 Y44.488 E2.11835
G1 X21.421 Y44.888 E2.15779
G1 X21.213 Y45.269 E2.19724
G1 X20.969 Y45.628 E2.23669
G1 X20.690 Y45.960 E2.27614
G1 X20.380 Y46.263 E2.31559
G1 X20.013 Y46.555 E2.35818
G1 X19.360 Y46.938 E2.42705
G1 X18.888 Y47.125 E2.47321
G1 X18.468 Y47.243 E2.51283
G1 X18.041 Y47.318 E2.55228
G1 X17.608 Y47.350 E2.59173
G1 X17.175 Y47.340 E2.63118
G1 X16.744 Y47.286 E2.67063
G1 X16.321 Y47.189 E2.71008
G1 X15.910 Y47.051 E2.74952
G1 X15.515 Y46.873 E2.78897
G1 X15.139 Y46.656 E2.82842
G1 X14.787 Y46.402 E2.86787
G1 X14.461 Y46.115 E2.90732
G1 X14.166 Y45.797 E2.94677
G1 X13.904 Y45.451 E2.98621
G1 X13.678 Y45.081 E3.02566
G1 X13.490 Y44.690 E3.06511
G1 X13.342 Y44.283 E3.10456
G1 X13.235 Y43.862 E3.14401
G1 X13.170 Y43.434 E3.18342
G1 X13.147 Y42.986 E3.22417
G1 X13.193 Y42.372 E3.28017
G1 X13.283 Y41.926 E3.32152
G1 X13.411 Y41.512 E3.36097
G1 X13.579 Y41.112 E3.40042
G1 X13.787 Y40.731 E3.43987
G1 X14.031 Y40.372 E3.47932
G1 X14.310 Y40.040 E3.51876
G1 X14.620 Y39.737 E3.55821
G1 X14.960 Y39.467 E3.59766
G1 X15.324 Y39.231 E3.63711
G1 X15.710 Y39.033 E3.67656
G1 X16.114 Y38.875 E3.71601
G1 X16.532 Y38.757 E3.75545
G1 X16.959 Y38.682 E3.79490
G1 X17.392 Y38.650 E3.83435
G1 X17.825 Y38.660 E3.87380
G1 X18.256 Y38.714 E3.91325
G1 X18.679 Y38.811 E3.95270
G1 X19.090 Y38.949 E3.99215
G1 X19.485 Y39.127 E4.03159
G1 X19.879 Y39.355 E4.07295
G1 X20.370 Y39.727 E4.12894
G1 X20.690 Y40.040 E4.16969
G1 X20.969 Y40.372 E4.20911
G1 X21.213 Y40.731 E4.24856
G1 X21.421 Y41.112 E4.28800
G1 X21.589 Y41.512 E4.32745
G1 X21.717 Y41.926 E4.36690
G1 X21.803 Y42.351 E4.40635
G1 X21.846 Y42.783 E4.44580
G1 X21.846 Y43.157 E4.47979
G1 X21.221 Y43.186 F4800.000
G1 F1800
G1 X21.184 Y43.555 E4.51357
G1 X21.111 Y43.919 E4.54735
G1 X21.001 Y44.274 E4.58112
G1 X20.857 Y44.617 E4.61490
G1 X20.679 Y44.943 E4.64868
G1 X20.470 Y45.250 E4.68245
G1 X20.231 Y45.534 E4.71623
G1 X19.966 Y45.794 E4.75001
G1 X19.659 Y46.039 E4.78570
G1 X19.085 Y46.375 E4.84612
G1 X18.688 Y46.532 E4.88500
G1 X18.329 Y46.633 E4.91888
G1 X17.963 Y46.697 E4.95265
G1 X17.593 Y46.725 E4.98643
G1 X17.222 Y46.716 E5.02021
G1 X16.853 Y46.669 E5.05398
G1 X16.491 Y46.587 E5.08776
G1 X16.139 Y46.469 E5.12154
G1 X15.800 Y46.316 E5.15531
G1 X15.478 Y46.130 E5.18909
G1 X15.177 Y45.913 E5.22287
G1 X14.898 Y45.667 E5.25665
G1 X14.646 Y45.395 E5.29042
G1 X14.421 Y45.099 E5.32420
G1 X14.228 Y44.782 E5.35798
G1 X14.066 Y44.447 E5.39175
G1 X13.939 Y44.098 E5.42553
G1 X13.848 Y43.738 E5.45931
G1 X13.792 Y43.371 E5.49306
G1 X13.773 Y42.993 E5.52746
G1 X13.813 Y42.457 E5.57635
G1 X13.889 Y42.081 E5.61129
G1 X13.999 Y41.726 E5.64507
G1 X14.143 Y41.383 E5.67885
G1 X14.321 Y41.057 E5.71262
G1 X14.530 Y40.750 E5.74640
G1 X14.769 Y40.466 E5.78018
G1 X15.034 Y40.206 E5.81395
G1 X15.325 Y39.975 E5.84773
G1 X15.637 Y39.773 E5.88151
G1 X15.968 Y39.604 E5.91528
G1 X16.313 Y39.468 E5.94906
G1 X16.671 Y39.367 E5.98284
G1 X17.037 Y39.303 E6.01661
G1 X17.407 Y39.275 E6.05039
G1 X17.778 Y39.284 E6.08417
G1 X18.147 Y39.331 E6.11794
G1 X18.509 Y39.413 E6.15172
G1 X18.861 Y39.531 E6.18550
G1 X19.200 Y39.684 E6.21927
G1 X19.533 Y39.876 E6.25421
G1 X19.961 Y40.202 E6.30310
G1 X20.232 Y40.466 E6.33750
G1 X20.470 Y40.750 E6.37126
G1 X20.679 Y41.057 E6.40504
G1 X20.857 Y41.383 E6.43881
G1 X21.001 Y41.726 E6.47259
G1 X21.111 Y42.081 E6.50637
G1 X21.184 Y42.445 E6.54014
G1 X21.221 Y42.814 E6.57392
G1 X21.221 Y43.126 E6.60224
G1 X20.597 Y43.155 F4800.000
G1 F1800
G1 X20.566 Y43.462 E6.63035
G1 X20.505 Y43.765 E6.65845
G1 X20.413 Y44.060 E6.68656
G1 X20.293 Y44.345 E6.71466
G1 X20.146 Y44.617 E6.74277
G1 X19.971 Y44.872 E6.77087
G1 X19.773 Y45.109 E6.79898
G1 X19.552 Y45.325 E6.82708
G1 X19.304 Y45.522 E6.85588
G1 X18.811 Y45.811 E6.90785
G1 X18.488 Y45.939 E6.93944
G1 X18.190 Y46.023 E6.96758
G1 X17.886 Y46.076 E6.99568
G1 X17.577 Y46.099 E7.02379
G1 X17.268 Y46.092 E7.05189
G1 X16.962 Y46.053 E7.08000
G1 X16.660 Y45.985 E7.10810
G1 X16.367 Y45.886 E7.13621
G1 X16.086 Y45.759 E7.16431
G1 X15.818 Y45.604 E7.19242
G1 X15.567 Y45.424 E7.22053
G1 X15.335 Y45.219 E7.24863
G1 X15.125 Y44.993 E7.27674
G1 X14.938 Y44.747 E7.30484
G1 X14.777 Y44.483 E7.33295
G1 X14.643 Y44.204 E7.36105
G1 X14.537 Y43.914 E7.38916
G1 X14.461 Y43.614 E7.41726
G1 X14.415 Y43.309 E7.44536
G1 X14.399 Y43.001 E7.47341
G1 X14.433 Y42.542 E7.51520
G1 X14.495 Y42.235 E7.54372
G1 X14.587 Y41.940 E7.57182
G1 X14.707 Y41.655 E7.59993
G1 X14.854 Y41.383 E7.62803
G1 X15.029 Y41.128 E7.65614
G1 X15.227 Y40.891 E7.68424
G1 X15.448 Y40.675 E7.71235
G1 X15.690 Y40.483 E7.74045
G1 X15.950 Y40.315 E7.76856
G1 X16.225 Y40.174 E7.79666
G1 X16.513 Y40.061 E7.82477
G1 X16.810 Y39.977 E7.85288
G1 X17.114 Y39.924 E7.88098
G1 X17.423 Y39.901 E7.90909
G1 X17.732 Y39.908 E7.93719
G1 X18.038 Y39.947 E7.96530
G1 X18.340 Y40.015 E7.99340
G1 X18.633 Y40.114 E8.02151
G1 X18.914 Y40.241 E8.04961
G1 X19.186 Y40.398 E8.07813
G1 X19.552 Y40.676 E8.11992
G1 X19.773 Y40.891 E8.14797
G1 X19.971 Y41.128 E8.17607
G1 X20.146 Y41.383 E8.20417
G1 X20.293 Y41.655 E8.23228
G1 X20.413 Y41.940 E8.26038
G1 X20.505 Y42.235 E8.28849
G1 X20.566 Y42.538 E8.31659
G1 X20.597 Y42.845 E8.34470
G1 X20.597 Y43.095 E8.36735
G1 X20.597 Y43.155 F4800.000
G1 E6.36735 F2400.00000
G92 E0
G1 X34.600 Y36.600 F4800.000
G1 E2.00000 F2400.00000
G1 F1800
G1 X34.600 Y26.600 E2.90930
G1 X85.400 Y26.600 E7.52856
G1 X85.400 Y36.600 E8.43785
G1 X108.900 Y36.600 E10.57470
G1 X108.900 Y82.323 E14.73225
G1 X108.457 Y81.969 E14.78376
G1 X107.818 Y81.642 E14.84908
G1 X107.126 Y81.447 E14.91441
G1 X106.410 Y81.393 E14.97974
G1 X105.697 Y81.483 E15.04506
G1 X105.016 Y81.711 E15.11039
G1 X104.394 Y82.071 E15.17572
G1 X103.870 Y82.533 E15.23922
G1 X103.510 Y82.985 E15.29185
G1 X103.176 Y83.599 E15.35535
G1 X102.964 Y84.285 E15.42068
G1 X102.892 Y85.000 E15.48600
G1 X102.964 Y85.715 E15.55133
G1 X103.176 Y86.401 E15.61665
G1 X103.519 Y87.032 E15.68198
G1 X103.981 Y87.583 E15.74731
G1 X104.543 Y88.031 E15.81264
G1 X105.182 Y88.358 E15.87796
G1 X105.874 Y88.553 E15.94329
G1 X106.590 Y88.607 E16.00862
G1 X107.303 Y88.517 E16.07394
G1 X107.984 Y88.289 E16.13927
G1 X108.900 Y87.759 E16.23549
G1 X108.900 Y93.400 E16.74840
G1 X11.100 Y93.400 E25.64136
G1 X11.100 Y87.677 E26.16173
G1 X11.543 Y88.031 E26.21323
G1 X12.182 Y88.358 E26.27856
G1 X12.874 Y88.553 E26.34388
G1 X13.570 Y88.605 E26.40738
G1 X14.146 Y88.548 E26.46002
G1 X14.818 Y88.358 E26.52351
G1 X15.457 Y88.031 E26.58884
G1 X16.019 Y87.583 E26.65417
G1 X16.481 Y87.032 E26.71949
G1 X16.824 Y86.401 E26.78482
G1 X17.036 Y85.715 E26.85015
G1 X17.108 Y85.000 E26.91547
G1 X17.036 Y84.285 E26.98080
G1 X16.824 Y83.599 E27.04613
G1 X16.481 Y82.968 E27.11146
G1 X16.019 Y82.417 E27.17678
G1 X15.457 Y81.969 E27.24211
G1 X14.818 Y81.642 E27.30744
G1 X14.126 Y81.447 E27.37276
G1 X13.410 Y81.393 E27.43809
G1 X12.697 Y81.483 E27.50342
G1 X12.016 Y81.711 E27.56874
G1 X11.100 Y82.241 E27.66496
G1 X11.100 Y36.600 E31.81506
G1 X34.540 Y36.600 E33.94645
G1 X33.975 Y35.975 F4800.000
G1 F1800
G1 X33.975 Y25.975 E34.85575
G1 X86.025 Y25.975 E39.58865
G1 X86.025 Y35.975 E40.49795
G1 X109.525 Y35.975 E42.63479
