; generated by Slic3r 1.3.0 on 2020-11-04 at 19:56:16

; external perimeters extrusion width = 0.44mm (2.25mm^3/s)
; perimeters extrusion width = 0.48mm (5.03mm^3/s)
; infill extrusion width = 0.48mm (10.05mm^3/s)
; solid infill extrusion width = 0.48mm (2.51mm^3/s)
; top infill extrusion width = 0.48mm (1.88mm^3/s)

M107
M190 S65 ; set bed temperature and wait for it to be reached
M104 S210 ; set temperature
G28 ; home all axes
G1 Z5 F5000 ; lift nozzle

; Filament gcode

M109 S210 ; set temperature and wait for it to be reached
G21 ; set units to millimeters
G90 ; use absolute coordinates
M82 ; use absolute distances for extrusion
G92 E0
G1 Z0.350 F4800.000
G1 E-2.00000 F2400.00000
G92 E0
G1 X4.988 Y5.753 F4800.000
G1 E2.00000 F2400.00000
G1 F1800
G1 X6.741 Y4.274 E2.20854
G1 X8.893 Y3.481 E2.41708
G1 X10.072 Y3.375 E2.52479
G1 X109.928 Y3.375 E11.60457
G1 X112.186 Y3.772 E11.81311
G1 X114.174 Y4.915 E12.02165
G1 X115.654 Y6.668 E12.23020
G1 X116.447 Y8.820 E12.43874
G1 X116.552 Y10.000 E12.54645
G1 X116.552 Y110.000 E21.63941
G1 X116.155 Y112.259 E21.84795
G1 X115.012 Y114.247 E22.05649
G1 X113.259 Y115.726 E22.26503
G1 X111.107 Y116.519 E22.47358
G1 X109.928 Y116.625 E22.58128
G1 X10.072 Y116.625 E31.66106
G1 X7.814 Y116.228 E31.86960
G1 X5.826 Y115.085 E32.07814
G1 X4.346 Y113.332 E32.28669
G1 X3.553 Y111.180 E32.49523
G1 X3.448 Y110.000 E32.60294
G1 X3.448 Y10.000 E41.69590
G1 X3.845 Y7.741 E41.90444
G1 X4.958 Y5.805 E42.10752
G1 E40.10752 F2400.00000
G92 E0
G1 X11.672 Y11.600 F4800.000
G1 E2.00000 F2400.00000
G1 F1800
G1 X108.328 Y11.600 E10.78884
G1 X108.328 Y108.400 E19.59086
G1 X11.672 Y108.400 E28.37971
G1 X11.672 Y11.660 E37.17627
G1 X11.047 Y10.975 F4800.000
G1 F1800
G1 X108.953 Y10.975 E46.07876
G1 X108.953 Y109.025 E54.99442
G1 X11.047 Y109.025 E63.89691
G1 X11.047 Y11.035 E72.80712
G1 X10.422 Y10.350 F4800.000
G1 F1800
G1 X109.578 Y10.350 E81.82324
G1 X109.578 Y109.650 E90.85255
G1 X10.422 Y109.650 E99.86867
G1 X10.422 Y10.410 E108.89252
G1 X10.809 Y10.454 F4800.000
G1 E106.89252 F2400.00000
G92 E0
G1 X12.540 Y11.982 F4800.000
G1 E2.00000 F2400.00000
G1 F1800
G1 X12.054 Y12.468 E2.06255
G1 X12.054 Y13.352 E2.14297
G1 X13.424 Y11.982 E2.31925
G1 X14.308 Y11.982 E2.39966
G1 X12.054 Y14.236 E2.68967
G1 X12.054 Y15.120 E2.77009
G1 X15.193 Y11.982 E3.17382
G1 X16.077 Y11.982 E3.25424
G1 X12.054 Y16.004 E3.77169
G1 X12.054 Y16.888 E3.85211
G1 X16.961 Y11.982 E4.48330
G1 X17.845 Y11.982 E4.56371
G1 X12.054 Y17.772 E5.30862
G1 X12.054 Y18.656 E5.38904
G1 X18.729 Y11.982 E6.24768
G1 X19.613 Y11.982 E6.32810
G1 X12.054 Y19.540 E7.30046
G1 X12.054 Y20.424 E7.38088
G1 X20.497 Y11.982 E8.46697
G1 X21.381 Y11.982 E8.54738
G1 X12.054 Y21.308 E9.74720
G1 X12.054 Y22.192 E9.82762
G1 X22.265 Y11.982 E11.14116
G1 X23.149 Y11.982 E11.22158
G1 X12.054 Y23.077 E12.64885
G1 X12.054 Y23.961 E12.72927
G1 X24.033 Y11.982 E14.27026
G1 X24.917 Y11.982 E14.35068
G1 X12.054 Y24.845 E16.00540
G1 X12.054 Y25.729 E16.08582
G1 X25.801 Y11.982 E17.85427
G1 X26.685 Y11.982 E17.93469
G1 X12.054 Y26.613 E19.81686
G1 X12.054 Y27.497 E19.89728
G1 X27.569 Y11.982 E21.89318
G1 X28.453 Y11.982 E21.97360
G1 X12.054 Y28.381 E24.08323
G1 X12.054 Y29.265 E24.16364
G1 X29.337 Y11.982 E26.38700
G1 X30.221 Y11.982 E26.46742
G1 X12.054 Y30.149 E28.80450
G1 X12.054 Y31.033 E28.88492
G1 X31.106 Y11.982 E31.33572
G1 X31.990 Y11.982 E31.41614
G1 X12.054 Y31.917 E33.98068
G1 X12.054 Y32.801 E34.06109
G1 X32.874 Y11.982 E36.73935
G1 X33.758 Y11.982 E36.81977
G1 X12.054 Y33.685 E39.61176
G1 X12.054 Y34.569 E39.69218
G1 X34.642 Y11.982 E42.59789
G1 X35.526 Y11.982 E42.67831
G1 X12.054 Y35.453 E45.69775
G1 X12.054 Y36.337 E45.77817
G1 X36.410 Y11.982 E48.91133
G1 X37.294 Y11.982 E48.99175
G1 X12.054 Y37.221 E52.23864
G1 X12.054 Y38.105 E52.31906
G1 X38.178 Y11.982 E55.67968
G1 X39.062 Y11.982 E55.76010
G1 X12.054 Y38.990 E59.23444
G1 X12.054 Y39.874 E59.31486
G1 X39.946 Y11.982 E62.90293
G1 X40.830 Y11.982 E62.98335
G1 X12.054 Y40.758 E66.68515
G1 X12.054 Y41.642 E66.76557
G1 X41.714 Y11.982 E70.58109
G1 X42.598 Y11.982 E70.66151
G1 X12.054 Y42.526 E74.59076
G1 X12.054 Y43.410 E74.67118
G1 X43.482 Y11.982 E78.71416
G1 X44.366 Y11.982 E78.79458
G1 X12.054 Y44.294 E82.95128
G1 X12.054 Y45.178 E83.03170
G1 X45.250 Y11.982 E87.30213
G1 X46.134 Y11.982 E87.38255
G1 X12.054 Y46.062 E91.76671
G1 X12.054 Y46.946 E91.84712
G1 X47.019 Y11.982 E96.34501
G1 X47.903 Y11.982 E96.42542
G1 X12.054 Y47.830 E101.03704
G1 X12.054 Y48.714 E101.11745
G1 X48.787 Y11.982 E105.84279
G1 X49.671 Y11.982 E105.92321
G1 X12.054 Y49.598 E110.76227
G1 X12.054 Y50.482 E110.84269
G1 X50.555 Y11.982 E115.79548
G1 X51.439 Y11.982 E115.87590
G1 X12.054 Y51.366 E120.94241
G1 X12.054 Y52.250 E121.02283
G1 X52.323 Y11.982 E126.20307
G1 X53.207 Y11.982 E126.28349
G1 X12.054 Y53.134 E131.57746
G1 X12.054 Y54.018 E131.65788
G1 X54.091 Y11.982 E137.06558
G1 X54.975 Y11.982 E137.14599
G1 X12.054 Y54.903 E142.66742
G1 X12.054 Y55.787 E142.74783
G1 X55.859 Y11.982 E148.38298
G1 X56.743 Y11.982 E148.46340
G1 X12.054 Y56.671 E154.21228
G1 X12.054 Y57.555 E154.29269
G1 X57.627 Y11.982 E160.15530
G1 X58.511 Y11.982 E160.23571
G1 X12.054 Y58.439 E166.21204
G1 X12.054 Y59.323 E166.29246
G1 X59.395 Y11.982 E172.38251
G1 X60.279 Y11.982 E172.46293
G1 X12.054 Y60.207 E178.66671
G1 X12.054 Y61.091 E178.74713
G1 X61.163 Y11.982 E185.06464
G1 X62.048 Y11.982 E185.14505
G1 X12.054 Y61.975 E191.57629
G1 X12.054 Y62.859 E191.65671
G1 X62.932 Y11.982 E198.20167
G1 X63.816 Y11.982 E198.28208
G1 X12.054 Y63.743 E204.94077
G1 X12.054 Y64.627 E205.02119
G1 X64.700 Y11.982 E211.79360
G1 X65.584 Y11.982 E211.87402
G1 X12.054 Y65.511 E218.76016
G1 X12.054 Y66.395 E218.84058
G1 X66.468 Y11.982 E225.84045
G1 X67.352 Y11.982 E225.92086
G1 X12.054 Y67.279 E233.03446
G1 X12.054 Y68.163 E233.11487
G1 X68.236 Y11.982 E240.34219
G1 X69.120 Y11.982 E240.42261
G1 X12.054 Y69.047 E247.76366
G1 X12.054 Y69.932 E247.84408
G1 X70.004 Y11.982 E255.29885
G1 X70.888 Y11.982 E255.37927
G1 X12.054 Y70.816 E262.94777
G1 X12.054 Y71.700 E263.02818
G1 X71.772 Y11.982 E270.71041
G1 X72.656 Y11.982 E270.79083
G1 X12.054 Y72.584 E278.58678
G1 X12.054 Y73.468 E278.66720
G1 X73.540 Y11.982 E286.57688
G1 X74.424 Y11.982 E286.65729
G1 X12.054 Y74.352 E294.68070
G1 X12.054 Y75.236 E294.76112
G1 X75.308 Y11.982 E302.89825
G1 X76.192 Y11.982 E302.97866
G1 X12.054 Y76.120 E311.22952
G1 X12.054 Y77.004 E311.30994
G1 X77.076 Y11.982 E319.67453
G1 X77.961 Y11.982 E319.75494
G1 X12.054 Y77.888 E328.23325
G1 X12.054 Y78.772 E328.31367
G1 X78.845 Y11.982 E336.90571
G1 X79.729 Y11.982 E336.98613
G1 X12.054 Y79.656 E345.69189
G1 X12.054 Y80.540 E345.77231
G1 X80.613 Y11.982 E354.59180
G1 X81.497 Y11.982 E354.67222
G1 X12.054 Y81.424 E363.60543
G1 X12.054 Y82.308 E363.68585
G1 X82.381 Y11.982 E372.73279
G1 X83.265 Y11.982 E372.81321
G1 X12.054 Y83.192 E381.97388
G1 X12.054 Y84.076 E382.05430
G1 X84.149 Y11.982 E391.32870
G1 X85.033 Y11.982 E391.40911
G1 X12.054 Y84.960 E400.79724
G1 X12.054 Y85.845 E400.87765
G1 X85.917 Y11.982 E410.37950
G1 X86.801 Y11.982 E410.45992
G1 X12.054 Y86.729 E420.07550
G1 X12.054 Y87.613 E420.15591
G1 X87.685 Y11.982 E429.88522
G1 X88.569 Y11.982 E429.96563
G1 X12.054 Y88.497 E439.80866
G1 X12.054 Y89.381 E439.88908
G1 X89.453 Y11.982 E449.84584
G1 X90.337 Y11.982 E449.92625
G1 X12.054 Y90.265 E459.99674
G1 X12.054 Y91.149 E460.07715
G1 X91.221 Y11.982 E470.26136
G1 X92.105 Y11.982 E470.34178
G1 X12.054 Y92.033 E480.63971
G1 X12.054 Y92.917 E480.72013
G1 X92.989 Y11.982 E491.13179
G1 X93.874 Y11.982 E491.21221
G1 X12.054 Y93.801 E501.73760
G1 X12.054 Y94.685 E501.81801
G1 X94.758 Y11.982 E512.45713
G1 X95.642 Y11.982 E512.53755
G1 X12.054 Y95.569 E523.29039
G1 X12.054 Y96.453 E523.37080
G1 X96.526 Y11.982 E534.23737
G1 X97.410 Y11.982 E534.31779
G1 X12.054 Y97.337 E545.29808
G1 X12.054 Y98.221 E545.37850
G1 X98.294 Y11.982 E556.47252
G1 X99.178 Y11.982 E556.55294
G1 X12.054 Y99.105 E567.76069
G1 X12.054 Y99.989 E567.84110
G1 X100.062 Y11.982 E579.16258
G1 X100.946 Y11.982 E579.24299
G1 X12.054 Y100.873 E590.67819
G1 X12.054 Y101.758 E590.75861
G1 X101.830 Y11.982 E602.30754
G1 X102.714 Y11.982 E602.38795
G1 X12.054 Y102.642 E614.05061
G1 X12.054 Y103.526 E614.13102
G1 X103.598 Y11.982 E625.90740
G1 X104.482 Y11.982 E625.98782
G1 X12.054 Y104.410 E637.87793
G1 X12.054 Y105.294 E637.95834
G1 X105.366 Y11.982 E649.96218
G1 X106.250 Y11.982 E650.04259
G1 X12.054 Y106.178 E662.16015
G1 X12.054 Y107.062 E662.24057
G1 X107.134 Y11.982 E674.47185
G1 X107.946 Y11.982 E674.54567
G1 X107.946 Y12.054 E674.55227
G1 X12.054 Y107.946 E686.88795
G1 X12.054 Y108.018 E686.89454
G1 X12.866 Y108.018 E686.96837
G1 X107.946 Y12.938 E699.19965
G1 X107.946 Y13.822 E699.28006
G1 X13.750 Y108.018 E711.39761
G1 X14.634 Y108.018 E711.47803
G1 X107.946 Y14.706 E723.48186
G1 X107.946 Y15.590 E723.56227
G1 X15.518 Y108.018 E735.45237
G1 X16.402 Y108.018 E735.53279
G1 X107.946 Y16.474 E747.30916
G1 X107.946 Y17.358 E747.38958
G1 X17.286 Y108.018 E759.05222
G1 X18.170 Y108.018 E759.13264
G1 X107.946 Y18.243 E770.68156
G1 X107.946 Y19.127 E770.76198
G1 X19.054 Y108.018 E782.19717
G1 X19.938 Y108.018 E782.27758
G1 X107.946 Y20.011 E793.59905
G1 X107.946 Y20.895 E793.67947
G1 X20.822 Y108.018 E804.88721
G1 X21.706 Y108.018 E804.96762
G1 X107.946 Y21.779 E816.06164
G1 X107.946 Y22.663 E816.14205
G1 X22.590 Y108.018 E827.12234
G1 X23.474 Y108.018 E827.20276
G1 X107.946 Y23.547 E838.06932
G1 X107.946 Y24.431 E838.14973
G1 X24.358 Y108.018 E848.90257
G1 X25.242 Y108.018 E848.98298
G1 X107.946 Y25.315 E859.62209
G1 X107.946 Y26.199 E859.70251
G1 X26.127 Y108.018 E870.22789
G1 X27.011 Y108.018 E870.30830
G1 X107.946 Y27.083 E880.71996
G1 X107.946 Y27.967 E880.80037
G1 X27.895 Y108.018 E891.09830
G1 X28.779 Y108.018 E891.17872
G1 X107.946 Y28.851 E901.36292
G1 X107.946 Y29.735 E901.44334
G1 X29.663 Y108.018 E911.51381
G1 X30.547 Y108.018 E911.59423
G1 X107.946 Y30.619 E921.55098
G1 X107.946 Y31.503 E921.63139
G1 X31.431 Y108.018 E931.47441
G1 X32.315 Y108.018 E931.55483
G1 X107.946 Y32.387 E941.28413
G1 X107.946 Y33.271 E941.36454
G1 X33.199 Y108.018 E950.98011
G1 X34.083 Y108.018 E951.06053
G1 X107.946 Y34.156 E960.56237
G1 X107.946 Y35.040 E960.64279
G1 X34.967 Y108.018 E970.03090
G1 X35.851 Y108.018 E970.11132
G1 X107.946 Y35.924 E979.38571
G1 X107.946 Y36.808 E979.46613
G1 X36.735 Y108.018 E988.62679
G1 X37.619 Y108.018 E988.70721
G1 X107.946 Y37.692 E997.75414
G1 X107.946 Y38.576 E997.83456
G1 X38.503 Y108.018 E1006.76777
G1 X39.387 Y108.018 E1006.84818
G1 X107.946 Y39.460 E1015.66767
G1 X107.946 Y40.344 E1015.74808
G1 X40.271 Y108.018 E1024.45384
G1 X41.155 Y108.018 E1024.53426
G1 X107.946 Y41.228 E1033.12629
G1 X107.946 Y42.112 E1033.20670
G1 X42.040 Y108.018 E1041.68501
G1 X42.924 Y108.018 E1041.76543
G1 X107.946 Y42.996 E1050.13000
G1 X107.946 Y43.880 E1050.21042
G1 X43.808 Y108.018 E1058.46127
G1 X44.692 Y108.018 E1058.54169
G1 X107.946 Y44.764 E1066.67881
G1 X107.946 Y45.648 E1066.75923
G1 X45.576 Y108.018 E1074.78263
G1 X46.460 Y108.018 E1074.86304
G1 X107.946 Y46.532 E1082.77271
G1 X107.946 Y47.416 E1082.85313
G1 X47.344 Y108.018 E1090.64908
G1 X48.228 Y108.018 E1090.72949
G1 X107.946 Y48.300 E1098.41171
G1 X107.946 Y49.185 E1098.49213
G1 X49.112 Y108.018 E1106.06062
G1 X49.996 Y108.018 E1106.14104
G1 X107.946 Y50.069 E1113.59580
G1 X107.946 Y50.953 E1113.67622
G1 X50.880 Y108.018 E1121.01726
G1 X51.764 Y108.018 E1121.09768
G1 X107.946 Y51.837 E1128.32499
G1 X107.946 Y52.721 E1128.40540
G1 X52.648 Y108.018 E1135.51899
G1 X53.532 Y108.018 E1135.59941
G1 X107.946 Y53.605 E1142.59927
G1 X107.946 Y54.489 E1142.67968
G1 X54.416 Y108.018 E1149.56582
G1 X55.300 Y108.018 E1149.64623
G1 X107.946 Y55.373 E1156.41864
G1 X107.946 Y56.257 E1156.49906
G1 X56.184 Y108.018 E1163.15774
G1 X57.069 Y108.018 E1163.23815
G1 X107.946 Y57.141 E1169.78311
G1 X107.946 Y58.025 E1169.86352
G1 X57.953 Y108.018 E1176.29475
G1 X58.837 Y108.018 E1176.37517
G1 X107.946 Y58.909 E1182.69267
G1 X107.946 Y59.793 E1182.77308
G1 X59.721 Y108.018 E1188.97686
G1 X60.605 Y108.018 E1189.05728
G1 X107.946 Y60.677 E1195.14732
G1 X107.946 Y61.561 E1195.22774
G1 X61.489 Y108.018 E1201.20406
G1 X62.373 Y108.018 E1201.28448
G1 X107.946 Y62.445 E1207.14707
G1 X107.946 Y63.329 E1207.22749
G1 X63.257 Y108.018 E1212.97636
G1 X64.141 Y108.018 E1213.05677
G1 X107.946 Y64.213 E1218.69192
G1 X107.946 Y65.098 E1218.77233
G1 X65.025 Y108.018 E1224.29375
G1 X65.909 Y108.018 E1224.37417
G1 X107.946 Y65.982 E1229.78185
G1 X107.946 Y66.866 E1229.86227
G1 X66.793 Y108.018 E1235.15623
G1 X67.677 Y108.018 E1235.23665
G1 X107.946 Y67.750 E1240.41689
G1 X107.946 Y68.634 E1240.49730
G1 X68.561 Y108.018 E1245.56381
G1 X69.445 Y108.018 E1245.64423
G1 X107.946 Y69.518 E1250.59701
G1 X107.946 Y70.402 E1250.67743
G1 X70.329 Y108.018 E1255.51649
G1 X71.213 Y108.018 E1255.59690
G1 X107.946 Y71.286 E1260.32223
G1 X107.946 Y72.170 E1260.40265
G1 X72.097 Y108.018 E1265.01425
G1 X72.982 Y108.018 E1265.09467
G1 X107.946 Y73.054 E1269.59255
G1 X107.946 Y73.938 E1269.67296
G1 X73.866 Y108.018 E1274.05711
G1 X74.750 Y108.018 E1274.13753
G1 X107.946 Y74.822 E1278.40795
G1 X107.946 Y75.706 E1278.48837
G1 X75.634 Y108.018 E1282.64507
G1 X76.518 Y108.018 E1282.72548
G1 X107.946 Y76.590 E1286.76846
G1 X107.946 Y77.474 E1286.84887
G1 X77.402 Y108.018 E1290.77812
G1 X78.286 Y108.018 E1290.85853
G1 X107.946 Y78.358 E1294.67405
G1 X107.946 Y79.242 E1294.75447
G1 X79.170 Y108.018 E1298.45626
G1 X80.054 Y108.018 E1298.53668
G1 X107.946 Y80.126 E1302.12474
G1 X107.946 Y81.011 E1302.20516
G1 X80.938 Y108.018 E1305.67950
G1 X81.822 Y108.018 E1305.75991
G1 X107.946 Y81.895 E1309.12053
G1 X107.946 Y82.779 E1309.20094
G1 X82.706 Y108.018 E1312.44783
G1 X83.590 Y108.018 E1312.52825
G1 X107.946 Y83.663 E1315.66140
G1 X107.946 Y84.547 E1315.74182
G1 X84.474 Y108.018 E1318.76125
G1 X85.358 Y108.018 E1318.84167
G1 X107.946 Y85.431 E1321.74738
G1 X107.946 Y86.315 E1321.82779
G1 X86.242 Y108.018 E1324.61977
G1 X87.126 Y108.018 E1324.70019
G1 X107.946 Y87.199 E1327.37844
G1 X107.946 Y88.083 E1327.45886
G1 X88.010 Y108.018 E1330.02339
G1 X88.895 Y108.018 E1330.10380
G1 X107.946 Y88.967 E1332.55461
G1 X107.946 Y89.851 E1332.63502
G1 X89.779 Y108.018 E1334.97210
G1 X90.663 Y108.018 E1335.05251
G1 X107.946 Y90.735 E1337.27586
G1 X107.946 Y91.619 E1337.35628
G1 X91.547 Y108.018 E1339.46590
G1 X92.431 Y108.018 E1339.54631
G1 X107.946 Y92.503 E1341.54221
G1 X107.946 Y93.387 E1341.62263
G1 X93.315 Y108.018 E1343.50479
G1 X94.199 Y108.018 E1343.58521
G1 X107.946 Y94.271 E1345.35365
G1 X107.946 Y95.155 E1345.43407
G1 X95.083 Y108.018 E1347.08878
G1 X95.967 Y108.018 E1347.16920
G1 X107.946 Y96.039 E1348.71019
G1 X107.946 Y96.924 E1348.79061
G1 X96.851 Y108.018 E1350.21787
G1 X97.735 Y108.018 E1350.29829
G1 X107.946 Y97.808 E1351.61182
G1 X107.946 Y98.692 E1351.69224
G1 X98.619 Y108.018 E1352.89205
G1 X99.503 Y108.018 E1352.97246
G1 X107.946 Y99.576 E1354.05855
G1 X107.946 Y100.460 E1354.13896
G1 X100.387 Y108.018 E1355.11132
G1 X101.271 Y108.018 E1355.19174
G1 X107.946 Y101.344 E1356.05037
G1 X107.946 Y102.228 E1356.13078
G1 X102.155 Y108.018 E1356.87569
G1 X103.039 Y108.018 E1356.95610
G1 X107.946 Y103.112 E1357.58728
G1 X107.946 Y103.996 E1357.66770
G1 X103.923 Y108.018 E1358.18515
G1 X104.808 Y108.018 E1358.26556
G1 X107.946 Y104.880 E1358.66929
G1 X107.946 Y105.764 E1358.74970
G1 X105.692 Y108.018 E1359.03970
G1 X106.576 Y108.018 E1359.12012
G1 X107.946 Y106.648 E1359.29639
G1 X107.946 Y107.532 E1359.37681
G1 X107.460 Y108.018 E1359.43935
M104 S205 ; set temperature
M140 S60 ; set bed temperature
G1 Z0.650 F4800.000
G1 X11.243 Y11.036 F4800.000
G1 F2400
G1 X108.757 Y11.036 E1364.53393
G1 X108.757 Y108.964 E1369.65016
G1 X11.243 Y108.964 E1374.74475
G1 X11.243 Y11.096 E1379.85784
G1 X10.824 Y10.617 F4800.000
G1 F2400
G1 X109.176 Y10.617 E1384.99619
G1 X109.176 Y109.383 E1390.15618
G1 X10.824 Y109.383 E1395.29454
G1 X10.824 Y10.677 E1400.45140
G1 X10.427 Y10.220 F4800.000
G1 F1200
G1 X109.573 Y10.220 E1405.09631
G1 X109.573 Y109.780 E1409.76063
