; generated by Slic3r 1.3.0 on 2020-11-25 at 17:58:37

; external perimeters extrusion width = 0.44mm (2.25mm^3/s)
; perimeters extrusion width = 0.48mm (5.03mm^3/s)
; infill extrusion width = 0.48mm (10.05mm^3/s)
; solid infill extrusion width = 0.48mm (2.51mm^3/s)
; top infill extrusion width = 0.48mm (1.88mm^3/s)

M107
M190 S65 ; set bed temperature and wait for it to be reached
M104 S210 ; set temperature
G28 ; home all axes
G1 Z5 F5000 ; lift nozzle

; Filament gcode

M109 S210 ; set temperature and wait for it to be reached
G21 ; set units to millimeters
G90 ; use absolute coordinates
M82 ; use absolute distances for extrusion
G92 E0
G1 Z0.350 F4800.000
G1 E-2.00000 F2400.00000
G92 E0
G1 X-0.299 Y-3.798 F4800.000
G1 E2.00000 F2400.00000
G1 F1800
G1 X1.674 Y-5.209 E2.22055
G1 X3.976 Y-5.887 E2.43878
G1 X6.374 Y-5.777 E2.65701
G1 X8.377 Y-5.022 E2.85167
G1 X77.714 Y33.650 E10.07080
G1 X78.475 Y34.122 E10.15224
G1 X79.212 Y34.631 E10.23368
G1 X79.924 Y35.175 E10.31512
G1 X80.608 Y35.753 E10.39657
G1 X81.390 Y36.489 E10.49419
G1 X84.009 Y39.130 E10.83244
G1 X84.825 Y40.076 E10.94602
G1 X85.369 Y40.787 E11.02746
G1 X85.878 Y41.525 E11.10891
G1 X86.167 Y41.981 E11.15800
G1 X86.616 Y42.756 E11.23945
G1 X125.022 Y111.623 E18.40948
G1 X125.827 Y113.884 E18.62771
G1 X125.851 Y116.284 E18.84593
G1 X125.090 Y118.560 E19.06416
G1 X123.816 Y120.281 E19.25884
G1 X120.281 Y123.816 E19.71349
G1 X118.326 Y125.209 E19.93172
G1 X116.024 Y125.887 E20.14995
G1 X113.627 Y125.777 E20.36817
G1 X111.397 Y124.890 E20.58640
G1 X110.028 Y123.816 E20.74457
G1 X-3.817 Y9.972 E35.38428
G1 X-5.209 Y8.017 E35.60251
G1 X-5.887 Y5.715 E35.82074
G1 X-5.777 Y3.317 E36.03897
G1 X-4.890 Y1.088 E36.25720
G1 X-3.816 Y-0.281 E36.41532
G1 X-0.341 Y-3.756 E36.86217
G1 X0.143 Y-3.356 F4800.000
G1 F1800
G1 X2.039 Y-4.691 E37.07302
G1 X4.254 Y-5.288 E37.28156
G1 X6.539 Y-5.095 E37.49010
G1 X8.072 Y-4.476 E37.64047
G1 X77.406 Y34.194 E44.85922
G1 X78.141 Y34.650 E44.93787
G1 X78.853 Y35.142 E45.01653
G1 X79.539 Y35.668 E45.09518
G1 X80.200 Y36.227 E45.17383
G1 X80.948 Y36.931 E45.26727
G1 X83.557 Y39.561 E45.60411
G1 X84.332 Y40.461 E45.71213
G1 X84.858 Y41.147 E45.79078
G1 X85.350 Y41.859 E45.86944
G1 X85.639 Y42.315 E45.91854
G1 X86.072 Y43.064 E45.99719
G1 X124.476 Y111.928 E53.16684
G1 X125.229 Y114.094 E53.37538
G1 X125.199 Y116.387 E53.58393
G1 X124.389 Y118.533 E53.79247
G1 X123.374 Y119.839 E53.94286
G1 X119.839 Y123.374 E54.39750
G1 X117.961 Y124.691 E54.60605
G1 X115.747 Y125.288 E54.81459
G1 X113.461 Y125.095 E55.02313
G1 X111.379 Y124.134 E55.23167
G1 X110.470 Y123.374 E55.33938
G1 X-3.375 Y9.530 E69.97909
G1 X-4.691 Y7.652 E70.18763
G1 X-5.288 Y5.437 E70.39617
G1 X-5.095 Y3.152 E70.60472
G1 X-4.133 Y1.070 E70.81326
G1 X-3.374 Y0.161 E70.92092
G1 X0.101 Y-3.314 E71.36779
G1 E69.36779 F2400.00000
G92 E0
G1 X73.618 Y55.059 F4800.000
G1 E2.00000 F2400.00000
G1 F1800
G1 X73.858 Y54.766 E2.03444
G1 X74.151 Y54.526 E2.06887
G1 X74.486 Y54.349 E2.10331
G1 X74.849 Y54.242 E2.13774
G1 X75.225 Y54.209 E2.17204
G1 X75.603 Y54.252 E2.20660
G1 X75.963 Y54.368 E2.24105
G1 X76.294 Y54.553 E2.27548
G1 X76.581 Y54.800 E2.30992
G1 X76.813 Y55.099 E2.34435
G1 X76.982 Y55.438 E2.37879
G1 X77.079 Y55.800 E2.41283
G1 X77.104 Y56.093 E2.43959
G1 X77.071 Y56.465 E2.47350
G1 X76.964 Y56.828 E2.50793
G1 X76.787 Y57.163 E2.54236
G1 X76.548 Y57.456 E2.57680
G1 X76.254 Y57.695 E2.61124
G1 X75.920 Y57.872 E2.64567
G1 X75.556 Y57.980 E2.68011
G1 X75.179 Y58.013 E2.71454
G1 X74.803 Y57.970 E2.74898
G1 X74.442 Y57.854 E2.78341
G1 X74.116 Y57.671 E2.81746
G1 X73.888 Y57.484 E2.84422
G1 X73.645 Y57.202 E2.87812
G1 X73.460 Y56.871 E2.91255
G1 X73.344 Y56.511 E2.94699
G1 X73.301 Y56.135 E2.98142
G1 X73.334 Y55.757 E3.01586
G1 X73.441 Y55.394 E3.05030
G1 X73.590 Y55.112 E3.07928
G1 X73.618 Y55.059 F4800.000
G1 X73.180 Y54.575 F4800.000
G1 F1800
G1 X73.029 Y54.711 E3.09780
G1 X72.588 Y55.037 E3.14766
G1 X72.116 Y55.317 E3.19752
G1 X71.619 Y55.549 E3.24738
G1 X71.102 Y55.730 E3.29724
G1 X70.569 Y55.859 E3.34710
G1 X70.025 Y55.934 E3.39696
G1 X69.477 Y55.954 E3.44682
G1 X68.930 Y55.920 E3.49668
G1 X68.389 Y55.831 E3.54655
G1 X67.859 Y55.690 E3.59641
G1 X67.346 Y55.496 E3.64627
G1 X66.855 Y55.251 E3.69613
G1 X66.391 Y54.960 E3.74599
G1 X65.961 Y54.626 E3.79547
G1 X65.748 Y54.433 E3.82161
G1 X65.377 Y54.042 E3.87065
G1 X65.040 Y53.609 E3.92051
G1 X64.749 Y53.145 E3.97037
G1 X64.504 Y52.654 E4.02023
G1 X64.311 Y52.141 E4.07009
G1 X64.169 Y51.611 E4.11995
G1 X64.080 Y51.070 E4.16981
G1 X64.046 Y50.523 E4.21968
G1 X64.066 Y49.975 E4.26954
G1 X64.141 Y49.431 E4.31940
G1 X64.270 Y48.898 E4.36926
G1 X64.451 Y48.381 E4.41912
G1 X64.683 Y47.884 E4.46898
G1 X64.963 Y47.412 E4.51884
G1 X65.289 Y46.971 E4.56870
G1 X65.657 Y46.565 E4.61856
G1 X66.063 Y46.197 E4.66843
G1 X66.504 Y45.871 E4.71829
G1 X66.976 Y45.591 E4.76815
G1 X67.473 Y45.359 E4.81801
G1 X67.990 Y45.178 E4.86787
G1 X68.523 Y45.050 E4.91773
G1 X69.067 Y44.975 E4.96759
G1 X69.605 Y44.954 E5.01663
G1 X69.893 Y44.965 E5.04277
G1 X70.433 Y45.026 E5.09225
G1 X70.970 Y45.141 E5.14211
G1 X71.491 Y45.309 E5.19197
G1 X71.994 Y45.528 E5.24183
G1 X72.472 Y45.797 E5.29169
G1 X72.922 Y46.111 E5.34155
G1 X73.337 Y46.469 E5.39142
G1 X73.715 Y46.866 E5.44128
G1 X74.052 Y47.299 E5.49114
G1 X74.343 Y47.763 E5.54100
G1 X74.587 Y48.254 E5.59086
G1 X74.781 Y48.767 E5.64072
G1 X74.923 Y49.297 E5.69058
G1 X75.012 Y49.838 E5.74044
G1 X75.046 Y50.385 E5.79030
G1 X75.025 Y50.933 E5.84017
G1 X74.950 Y51.477 E5.89003
G1 X74.822 Y52.010 E5.93989
G1 X74.641 Y52.527 E5.98975
G1 X74.409 Y53.024 E6.03961
G1 X74.129 Y53.496 E6.08947
G1 X73.803 Y53.937 E6.13933
G1 X73.435 Y54.343 E6.18919
G1 X73.224 Y54.534 E6.21508
G1 X73.227 Y54.773 F4800.000
G1 E4.21508 F2400.00000
G92 E0
G1 X65.234 Y46.142 F4800.000
G1 E2.00000 F2400.00000
G1 F1800
G1 X64.941 Y46.382 E2.03443
G1 X64.606 Y46.559 E2.06887
G1 X64.243 Y46.666 E2.10331
G1 X63.865 Y46.699 E2.13774
G1 X63.489 Y46.656 E2.17218
G1 X63.129 Y46.540 E2.20661
G1 X62.798 Y46.355 E2.24105
G1 X62.511 Y46.108 E2.27548
G1 X62.279 Y45.809 E2.30992
G1 X62.110 Y45.470 E2.34436
G1 X62.013 Y45.108 E2.37840
G1 X61.988 Y44.815 E2.40516
G1 X62.021 Y44.444 E2.43907
G1 X62.128 Y44.080 E2.47350
G1 X62.305 Y43.746 E2.50793
G1 X62.544 Y43.452 E2.54237
G1 X62.837 Y43.213 E2.57680
G1 X63.172 Y43.036 E2.61124
G1 X63.535 Y42.929 E2.64567
G1 X63.911 Y42.896 E2.67997
G1 X64.289 Y42.938 E2.71453
G1 X64.650 Y43.054 E2.74898
G1 X64.980 Y43.239 E2.78341
G1 X65.267 Y43.486 E2.81785
G1 X65.499 Y43.785 E2.85228
G1 X65.668 Y44.125 E2.88672
G1 X65.765 Y44.486 E2.92077
G1 X65.790 Y44.779 E2.94753
G1 X65.758 Y45.151 E2.98143
G1 X65.651 Y45.514 E3.01586
G1 X65.474 Y45.849 E3.05030
G1 X65.272 Y46.096 E3.07928
G1 X65.234 Y46.142 F4800.000
G1 E1.07928 F2400.00000
G92 E0
G1 X73.327 Y45.108 F4800.000
G1 E2.00000 F2400.00000
G1 F1800
G1 X73.302 Y44.815 E2.02676
G1 X73.334 Y44.444 E2.06067
G1 X73.441 Y44.080 E2.09510
G1 X73.618 Y43.746 E2.12953
G1 X73.858 Y43.452 E2.16397
G1 X74.151 Y43.213 E2.19840
G1 X74.486 Y43.036 E2.23284
G1 X74.849 Y42.929 E2.26727
G1 X75.225 Y42.896 E2.30157
G1 X75.603 Y42.938 E2.33614
G1 X75.963 Y43.054 E2.37058
G1 X76.294 Y43.239 E2.40501
G1 X76.581 Y43.486 E2.43945
G1 X76.813 Y43.785 E2.47389
G1 X76.982 Y44.125 E2.50832
G1 X77.079 Y44.486 E2.54237
G1 X77.104 Y44.779 E2.56913
G1 X77.071 Y45.151 E2.60303
G1 X76.964 Y45.514 E2.63746
G1 X76.787 Y45.849 E2.67190
G1 X76.548 Y46.142 E2.70633
G1 X76.254 Y46.382 E2.74077
G1 X75.920 Y46.559 E2.77520
G1 X75.556 Y46.666 E2.80964
G1 X75.179 Y46.699 E2.84407
G1 X74.803 Y46.656 E2.87851
G1 X74.442 Y46.540 E2.91294
G1 X74.112 Y46.355 E2.94738
G1 X73.825 Y46.108 E2.98182
G1 X73.593 Y45.809 E3.01625
G1 X73.424 Y45.470 E3.05069
G1 X73.343 Y45.166 E3.07928
G1 X73.327 Y45.108 F4800.000
G1 E1.07928 F2400.00000
G92 E0
G1 X65.200 Y54.733 F4800.000
G1 E2.00000 F2400.00000
G1 F1800
G1 X65.447 Y55.020 E2.03444
G1 X65.632 Y55.350 E2.06887
G1 X65.748 Y55.711 E2.10331
G1 X65.791 Y56.087 E2.13774
G1 X65.758 Y56.464 E2.17218
G1 X65.651 Y56.828 E2.20661
G1 X65.476 Y57.157 E2.24052
G1 X65.295 Y57.391 E2.26741
G1 X65.018 Y57.641 E2.30132
G1 X64.693 Y57.834 E2.33575
G1 X64.335 Y57.960 E2.37019
G1 X63.960 Y58.011 E2.40462
G1 X63.582 Y57.988 E2.43906
G1 X63.216 Y57.890 E2.47349
G1 X62.877 Y57.721 E2.50793
G1 X62.578 Y57.489 E2.54236
G1 X62.331 Y57.202 E2.57680
G1 X62.146 Y56.871 E2.61124
G1 X62.030 Y56.511 E2.64567
G1 X61.987 Y56.135 E2.68011
G1 X62.020 Y55.757 E2.71454
G1 X62.128 Y55.394 E2.74898
G1 X62.305 Y55.059 E2.78341
G1 X62.544 Y54.766 E2.81785
G1 X62.837 Y54.526 E2.85229
G1 X63.172 Y54.349 E2.88672
G1 X63.531 Y54.244 E2.92077
G1 X63.824 Y54.211 E2.94753
G1 X64.196 Y54.234 E2.98143
G1 X64.562 Y54.332 E3.01586
G1 X64.901 Y54.501 E3.05030
G1 X65.153 Y54.696 E3.07928
G1 X65.200 Y54.733 F4800.000
G1 E1.07928 F2400.00000
G92 E0
G1 X52.929 Y51.656 F4800.000
G1 E2.00000 F2400.00000
G1 F1800
G1 X60.826 Y43.759 E3.01552
G1 X60.733 Y44.814 E3.11189
G1 X60.778 Y45.326 E3.15856
G1 X60.935 Y45.914 E3.21395
G1 X61.215 Y46.477 E3.27113
G1 X61.601 Y46.974 E3.32831
G1 X62.078 Y47.384 E3.38549
G1 X62.626 Y47.691 E3.44266
G1 X63.293 Y47.906 E3.50637
G1 X63.070 Y48.545 E3.56785
G1 X62.912 Y49.199 E3.62905
G1 X62.820 Y49.866 E3.69026
G1 X62.795 Y50.538 E3.75146
G1 X62.837 Y51.210 E3.81267
G1 X62.945 Y51.874 E3.87387
G1 X63.119 Y52.524 E3.93508
G1 X63.302 Y53.008 E3.98209
G1 X62.699 Y53.186 E4.03930
G1 X62.143 Y53.480 E4.09648
G1 X61.656 Y53.878 E4.15366
G1 X61.258 Y54.365 E4.21084
G1 X60.964 Y54.921 E4.26802
G1 X60.786 Y55.524 E4.32519
G1 X60.732 Y56.150 E4.38237
G1 X60.802 Y56.775 E4.43955
G1 X60.995 Y57.374 E4.49673
G1 X61.302 Y57.922 E4.55391
G1 X61.713 Y58.399 E4.61109
G1 X62.209 Y58.785 E4.66827
G1 X62.772 Y59.065 E4.72545
G1 X63.380 Y59.227 E4.78262
G1 X64.007 Y59.266 E4.83980
G1 X64.630 Y59.181 E4.89698
G1 X65.224 Y58.973 E4.95416
G1 X65.764 Y58.652 E5.01132
G1 X66.214 Y58.244 E5.06654
G1 X66.530 Y57.838 E5.11335
G1 X66.814 Y57.301 E5.16858
G1 X66.992 Y56.698 E5.22577
G1 X67.476 Y56.881 E5.27278
G1 X68.126 Y57.055 E5.33399
G1 X68.790 Y57.163 E5.39519
G1 X69.462 Y57.205 E5.45640
G1 X70.134 Y57.180 E5.51760
G1 X70.801 Y57.088 E5.57880
G1 X71.455 Y56.930 E5.64001
G1 X72.094 Y56.707 E5.70149
G1 X72.309 Y57.374 E5.76519
G1 X72.616 Y57.922 E5.82235
G1 X73.012 Y58.382 E5.87753
G1 X73.409 Y58.707 E5.92420
G1 X73.940 Y59.005 E5.97959
G1 X74.539 Y59.198 E6.03677
G1 X75.163 Y59.268 E6.09395
G1 X76.241 Y59.174 E6.19231
G1 X68.344 Y67.071 E7.20781
G1 X116.427 Y115.154 E13.39102
G1 X115.154 Y116.427 E13.55474
G1 X3.573 Y4.846 E27.90347
G1 X4.846 Y3.573 E28.06718
G1 X52.887 Y51.613 E34.24494
G1 E32.24494 F2400.00000
G92 E0
G1 X63.577 Y41.374 F4800.000
G1 E2.00000 F2400.00000
G1 F1800
G1 X64.054 Y41.104 E2.04987
G1 X64.888 Y40.709 E2.13375
G1 X65.319 Y40.543 E2.17570
G1 X66.201 Y40.275 E2.25958
G1 X66.651 Y40.174 E2.30153
G1 X67.555 Y40.040 E2.38461
G1 X68.025 Y40.005 E2.42742
G1 X68.946 Y40.005 E2.51118
G1 X69.415 Y40.040 E2.55398
G1 X70.319 Y40.174 E2.63707
G1 X71.213 Y40.398 E2.72088
G1 X71.660 Y40.546 E2.76369
G1 X72.504 Y40.896 E2.84677
G1 X72.916 Y41.104 E2.88872
G1 X73.317 Y41.331 E2.93061
G1 X74.077 Y41.838 E3.01372
G1 X73.457 Y42.166 E3.07755
G1 X72.970 Y42.564 E3.13472
G1 X72.572 Y43.051 E3.19190
G1 X72.278 Y43.607 E3.24908
G1 X72.105 Y44.194 E3.30471
G1 X71.293 Y43.932 E3.38223
G1 X70.635 Y43.791 E3.44344
G1 X69.986 Y43.718 E3.50288
G1 X69.605 Y43.704 E3.53755
G1 X68.957 Y43.728 E3.59646
G1 X68.291 Y43.820 E3.65765
G1 X67.636 Y43.978 E3.71885
G1 X66.984 Y44.206 E3.78173
G1 X66.843 Y43.680 E3.83126
G1 X66.563 Y43.117 E3.88844
G1 X66.177 Y42.621 E3.94562
G1 X65.700 Y42.211 E4.00279
G1 X65.152 Y41.903 E4.05997
G1 X64.553 Y41.710 E4.11719
G1 X63.926 Y41.640 E4.17452
G1 X63.667 Y41.663 E4.19821
G1 X63.595 Y41.431 E4.22024
G1 E2.22024 F2400.00000
G92 E0
G1 X75.790 Y47.900 F4800.000
G1 E2.00000 F2400.00000
G1 F1800
G1 X76.393 Y47.722 E2.05721
G1 X76.949 Y47.428 E2.11439
G1 X77.436 Y47.030 E2.17157
G1 X77.834 Y46.543 E2.22875
G1 X78.162 Y45.923 E2.29257
G1 X78.669 Y46.682 E2.37562
G1 X78.896 Y47.084 E2.41757
G1 X79.291 Y47.918 E2.50144
G1 X79.457 Y48.348 E2.54340
G1 X79.725 Y49.231 E2.62727
G1 X79.905 Y50.135 E2.71115
G1 X79.961 Y50.593 E2.75310
G1 X80.006 Y51.515 E2.83698
G1 X79.961 Y52.436 E2.92086
G1 X79.826 Y53.349 E3.00480
G1 X79.602 Y54.243 E3.08861
G1 X79.457 Y54.681 E3.13056
G1 X79.104 Y55.534 E3.21444
G1 X78.626 Y56.423 E3.30624
G1 X78.337 Y56.333 E3.33372
G1 X78.359 Y56.094 E3.35559
G1 X78.314 Y55.582 E3.40225
G1 X78.156 Y54.994 E3.45764
G1 X77.877 Y54.431 E3.51482
G1 X77.491 Y53.934 E3.57200
G1 X77.014 Y53.524 E3.62918
G1 X76.466 Y53.217 E3.68635
G1 X75.799 Y53.002 E3.75006
G1 X76.022 Y52.364 E3.81154
G1 X76.180 Y51.709 E3.87274
G1 X76.272 Y51.043 E3.93395
G1 X76.297 Y50.370 E3.99515
G1 X76.255 Y49.698 E4.05636
G1 X76.147 Y49.034 E4.11756
G1 X75.972 Y48.384 E4.17877
G1 X75.811 Y47.956 E4.22033
G1 E2.22033 F2400.00000
G92 E0
G1 X69.228 Y67.071 F4800.000
G1 E2.00000 F2400.00000
G1 F1800
G1 X117.311 Y115.154 E8.18321
G1 X115.154 Y117.311 E8.46057
G1 X2.689 Y4.846 E22.92294
G1 X4.846 Y2.689 E23.20030
G1 X52.929 Y50.772 E29.38351
G1 X61.753 Y41.966 E30.51711
G1 X62.514 Y41.341 E30.60656
G1 X63.331 Y40.795 E30.69602
G1 X64.199 Y40.331 E30.78547
G1 X65.108 Y39.955 E30.87493
G1 X66.049 Y39.669 E30.96439
G1 X66.530 Y39.561 E31.00913
G1 X67.494 Y39.418 E31.09776
G1 X67.994 Y39.381 E31.14336
G1 X68.977 Y39.381 E31.23274
G1 X69.477 Y39.418 E31.27834
G1 X70.441 Y39.561 E31.36697
G1 X71.395 Y39.800 E31.45639
G1 X71.871 Y39.958 E31.50199
G1 X72.771 Y40.331 E31.59063
G1 X73.211 Y40.552 E31.63537
G1 X73.639 Y40.795 E31.68007
G1 X74.457 Y41.341 E31.76956
G1 X74.845 Y41.644 E31.81431
G1 X75.537 Y42.241 E31.89739
G1 X74.732 Y42.312 E31.97083
G1 X74.249 Y42.454 E32.01662
G1 X73.804 Y42.689 E32.06243
G1 X73.414 Y43.008 E32.10824
G1 X73.095 Y43.398 E32.15404
G1 X72.860 Y43.844 E32.19985
G1 X72.717 Y44.327 E32.24564
G1 X72.674 Y44.815 E32.29019
G1 X72.709 Y45.213 E32.32653
G1 X72.273 Y44.968 E32.37203
G1 X71.713 Y44.724 E32.42756
G1 X71.131 Y44.537 E32.48309
G1 X70.534 Y44.408 E32.53863
G1 X69.939 Y44.341 E32.59309
G1 X69.605 Y44.329 E32.62349
G1 X69.012 Y44.351 E32.67747
G1 X68.407 Y44.435 E32.73299
G1 X67.813 Y44.578 E32.78853
G1 X67.237 Y44.780 E32.84406
G1 X66.383 Y45.178 E32.92977
G1 X66.418 Y44.780 E32.96615
G1 X66.383 Y44.377 E33.00286
G1 X66.255 Y43.902 E33.04758
G1 X66.031 Y43.451 E33.09339
G1 X65.722 Y43.054 E33.13919
G1 X65.340 Y42.725 E33.18500
G1 X64.901 Y42.479 E33.23081
G1 X64.421 Y42.324 E33.27664
G1 X63.919 Y42.268 E33.32258
G1 X63.419 Y42.312 E33.36824
G1 X62.936 Y42.454 E33.41404
G1 X62.490 Y42.689 E33.45984
G1 X62.100 Y43.008 E33.50565
G1 X61.781 Y43.398 E33.55146
G1 X61.546 Y43.844 E33.59726
G1 X61.403 Y44.327 E33.64306
G1 X61.361 Y44.815 E33.68760
G1 X61.396 Y45.217 E33.72431
G1 X61.523 Y45.692 E33.76903
G1 X61.747 Y46.143 E33.81484
G1 X62.056 Y46.541 E33.86065
G1 X62.438 Y46.869 E33.90645
G1 X62.877 Y47.116 E33.95226
G1 X63.357 Y47.270 E33.99807
G1 X63.858 Y47.327 E34.04387
G1 X64.270 Y47.291 E34.08152
G1 X63.872 Y48.145 E34.16724
G1 X63.670 Y48.721 E34.22277
G1 X63.527 Y49.315 E34.27831
G1 X63.443 Y49.920 E34.33384
G1 X63.420 Y50.530 E34.38937
G1 X63.458 Y51.140 E34.44490
G1 X63.557 Y51.743 E34.50044
G1 X63.715 Y52.333 E34.55597
G1 X63.931 Y52.904 E34.61150
G1 X64.284 Y53.613 E34.68356
G1 X63.809 Y53.584 E34.72685
G1 X63.407 Y53.629 E34.76357
G1 X62.936 Y53.768 E34.80828
G1 X62.490 Y54.003 E34.85409
G1 X62.100 Y54.322 E34.89990
G1 X61.781 Y54.712 E34.94571
G1 X61.546 Y55.157 E34.99151
G1 X61.403 Y55.641 E35.03732
G1 X61.360 Y56.142 E35.08313
G1 X61.416 Y56.643 E35.12893
G1 X61.570 Y57.123 E35.17474
G1 X61.817 Y57.562 E35.22055
G1 X62.145 Y57.944 E35.26636
G1 X62.543 Y58.253 E35.31216
G1 X62.994 Y58.477 E35.35797
G1 X63.481 Y58.608 E35.40378
G1 X63.984 Y58.639 E35.44958
G1 X64.483 Y58.570 E35.49539
G1 X64.958 Y58.404 E35.54120
G1 X65.391 Y58.146 E35.58699
G1 X65.755 Y57.818 E35.63156
G1 X66.003 Y57.498 E35.66841
G1 X66.232 Y57.064 E35.71298
G1 X66.375 Y56.581 E35.75877
G1 X66.419 Y56.079 E35.80458
