; generated by Slic3r 1.3.0 on 2020-12-09 at 11:56:20

; external perimeters extrusion width = 0.44mm (2.25mm^3/s)
; perimeters extrusion width = 0.48mm (5.03mm^3/s)
; infill extrusion width = 0.48mm (10.05mm^3/s)
; solid infill extrusion width = 0.48mm (2.51mm^3/s)
; top infill extrusion width = 0.48mm (1.88mm^3/s)

M107
M190 S65 ; set bed temperature and wait for it to be reached
M104 S210 ; set temperature
G28 ; home all axes
G1 Z5 F5000 ; lift nozzle

; Filament gcode

M109 S210 ; set temperature and wait for it to be reached
G21 ; set units to millimeters
G90 ; use absolute coordinates
M82 ; use absolute distances for extrusion
G92 E0
G1 Z0.350 F4800.000
G1 E-2.00000 F2400.00000
G92 E0
G1 X7.638 Y41.528 F4800.000
G1 E2.00000 F2400.00000
G1 F1800
G1 X44.357 Y15.922 E6.07053
G1 X45.086 Y15.452 E6.14942
G1 X46.801 Y14.626 E6.32248
G1 X47.236 Y14.474 E6.36433
G1 X49.091 Y14.051 E6.53739
G1 X49.548 Y13.999 E6.57923
G1 X50.500 Y13.946 E6.66590
G1 X69.500 Y13.946 E8.39356
G1 X70.452 Y13.999 E8.48023
G1 X70.909 Y14.051 E8.52208
G1 X72.764 Y14.474 E8.69513
G1 X73.199 Y14.626 E8.73697
G1 X74.914 Y15.452 E8.91004
G1 X75.643 Y15.922 E8.98894
G1 X112.362 Y41.528 E13.05946
G1 X114.242 Y43.324 E13.29587
G1 X115.491 Y45.604 E13.53228
G1 X116.000 Y48.500 E13.79962
G1 X116.000 Y54.500 E14.34519
G1 X115.831 Y56.184 E14.49904
G1 X112.396 Y73.184 E16.07609
G1 X111.497 Y75.623 E16.31250
G1 X110.074 Y77.511 E16.52750
G1 X83.564 Y104.011 E19.93588
G1 X81.465 Y105.546 E20.17229
G1 X79.001 Y106.376 E20.40870
G1 X77.555 Y106.500 E20.54072
G1 X42.445 Y106.500 E23.73322
G1 X39.876 Y106.102 E23.96963
G1 X37.547 Y104.946 E24.20604
G1 X36.436 Y104.011 E24.33805
G1 X9.926 Y77.511 E27.74643
G1 X8.390 Y75.414 E27.98284
G1 X7.604 Y73.184 E28.19785
G1 X4.169 Y56.184 E29.77489
G1 X4.000 Y54.500 E29.92874
G1 X4.000 Y48.500 E30.47432
G1 X4.398 Y45.931 E30.71073
G1 X5.554 Y43.602 E30.94714
G1 X7.596 Y41.571 E31.20901
G1 X7.996 Y42.041 F4800.000
G1 F1800
G1 X44.714 Y16.434 E35.27954
G1 X45.419 Y15.981 E35.35571
G1 X47.008 Y15.216 E35.51605
G1 X47.442 Y15.064 E35.55789
G1 X49.161 Y14.672 E35.71823
G1 X49.618 Y14.620 E35.76007
G1 X50.500 Y14.571 E35.84037
G1 X69.500 Y14.571 E37.56803
G1 X70.382 Y14.620 E37.64833
G1 X70.839 Y14.672 E37.69017
G1 X72.558 Y15.064 E37.85051
G1 X72.992 Y15.216 E37.89235
G1 X74.581 Y15.981 E38.05269
G1 X75.286 Y16.434 E38.12886
G1 X112.004 Y42.041 E42.19939
G1 X113.803 Y43.780 E42.42689
G1 X114.966 Y45.995 E42.65439
G1 X115.375 Y48.500 E42.88516
G1 X115.375 Y54.500 E43.43073
G1 X115.219 Y56.060 E43.57327
G1 X111.783 Y73.060 E45.15032
G1 X110.905 Y75.402 E45.37782
G1 X109.632 Y77.069 E45.56852
G1 X83.122 Y103.569 E48.97690
G1 X81.094 Y105.035 E49.20440
G1 X77.555 Y105.875 E49.53516
G1 X42.445 Y105.875 E52.72766
G1 X39.975 Y105.477 E52.95516
G1 X36.878 Y103.569 E53.28592
G1 X10.368 Y77.069 E56.69430
G1 X8.902 Y75.042 E56.92180
G1 X8.217 Y73.060 E57.11250
G1 X4.781 Y56.060 E58.68955
G1 X4.625 Y54.500 E58.83208
G1 X4.625 Y48.500 E59.37766
G1 X5.023 Y46.030 E59.60516
G1 X6.175 Y43.809 E59.83266
G1 X7.953 Y42.083 E60.05797
G1 X8.353 Y42.553 F4800.000
G1 F1800
G1 X45.072 Y16.947 E64.12850
G1 X45.751 Y16.510 E64.20195
G1 X47.214 Y15.806 E64.34956
G1 X47.648 Y15.654 E64.39140
G1 X49.231 Y15.293 E64.53902
G1 X49.688 Y15.241 E64.58086
G1 X50.500 Y15.195 E64.65479
G1 X69.500 Y15.195 E66.38245
G1 X70.312 Y15.241 E66.45637
G1 X70.769 Y15.293 E66.49822
G1 X72.352 Y15.654 E66.64583
G1 X72.786 Y15.806 E66.68767
G1 X74.249 Y16.510 E66.83529
G1 X74.928 Y16.947 E66.90873
G1 X111.647 Y42.553 E70.97926
G1 X113.361 Y44.233 E71.19749
G1 X114.433 Y46.380 E71.41571
G1 X114.750 Y48.500 E71.61059
G1 X114.750 Y54.500 E72.15617
G1 X114.606 Y55.936 E72.28739
G1 X111.171 Y72.936 E73.86444
G1 X110.313 Y75.177 E74.08266
G1 X109.190 Y76.627 E74.24941
G1 X82.680 Y103.127 E77.65779
G1 X80.725 Y104.520 E77.87602
G1 X77.555 Y105.250 E78.17187
G1 X42.445 Y105.250 E81.36437
G1 X40.078 Y104.853 E81.58259
G1 X37.320 Y103.127 E81.87844
G1 X10.810 Y76.627 E85.28682
G1 X9.417 Y74.673 E85.50505
G1 X8.829 Y72.936 E85.67180
G1 X5.394 Y55.936 E87.24884
G1 X5.250 Y54.500 E87.38007
G1 X5.250 Y48.500 E87.92564
G1 X5.647 Y46.133 E88.14387
G1 X6.796 Y44.026 E88.36210
G1 X8.309 Y42.595 E88.55152
G1 X8.710 Y43.066 F4800.000
G1 F1800
G1 X45.429 Y17.459 E92.62204
G1 X46.084 Y17.039 E92.69276
G1 X47.420 Y16.396 E92.82765
G1 X47.855 Y16.244 E92.86950
G1 X49.301 Y15.913 E93.00439
G1 X49.758 Y15.862 E93.04623
G1 X50.500 Y15.820 E93.11378
G1 X69.500 Y15.820 E94.84145
G1 X70.242 Y15.862 E94.90900
G1 X70.699 Y15.914 E94.95084
G1 X72.145 Y16.244 E95.08573
G1 X72.580 Y16.396 E95.12757
G1 X73.916 Y17.039 E95.26246
G1 X74.571 Y17.459 E95.33319
G1 X111.290 Y43.066 E99.40371
G1 X112.915 Y44.684 E99.61226
G1 X113.892 Y46.759 E99.82080
G1 X114.125 Y48.500 E99.98054
G1 X114.125 Y54.500 E100.52612
G1 X113.994 Y55.812 E100.64603
G1 X110.558 Y72.812 E102.22308
G1 X109.722 Y74.948 E102.43162
G1 X108.748 Y76.185 E102.57481
G1 X82.238 Y102.685 E105.98319
G1 X80.360 Y104.002 E106.19173
G1 X77.555 Y104.625 E106.45305
G1 X42.445 Y104.625 E109.64554
G1 X40.186 Y104.228 E109.85409
G1 X37.762 Y102.685 E110.11541
G1 X11.252 Y76.185 E113.52378
G1 X9.935 Y74.308 E113.73233
G1 X9.442 Y72.812 E113.87551
G1 X6.006 Y55.812 E115.45256
G1 X5.875 Y54.500 E115.57247
G1 X5.875 Y48.500 E116.11805
G1 X6.272 Y46.241 E116.32659
G1 X7.415 Y44.253 E116.53513
G1 X8.666 Y43.107 E116.68942
G1 E114.68942 F2400.00000
G92 E0
G1 X45.534 Y96.400 F4800.000
G1 E2.00000 F2400.00000
G1 F1800
G1 X44.045 Y96.400 E2.13540
G1 X44.045 Y88.045 E2.89514
G1 X45.590 Y88.045 E3.03561
G1 X46.514 Y87.941 E3.12014
G1 X47.476 Y87.604 E3.21289
G1 X48.340 Y87.061 E3.30564
G1 X49.061 Y86.340 E3.39839
G1 X49.604 Y85.476 E3.49114
G1 X49.941 Y84.514 E3.58389
G1 X50.045 Y83.590 E3.66842
G1 X50.045 Y82.590 E3.75935
G1 X50.066 Y82.401 E3.77663
G1 X50.152 Y82.223 E3.79463
G1 X50.223 Y82.152 E3.80369
G1 X50.401 Y82.066 E3.82170
G1 X50.590 Y82.045 E3.83898
G1 X69.410 Y82.045 E5.55030
G1 X69.599 Y82.066 E5.56758
G1 X69.777 Y82.152 E5.58558
G1 X69.848 Y82.223 E5.59464
G1 X69.934 Y82.401 E5.61264
G1 X69.955 Y82.590 E5.62992
G1 X69.955 Y83.590 E5.72085
G1 X70.059 Y84.514 E5.80538
G1 X70.396 Y85.476 E5.89813
G1 X70.939 Y86.340 E5.99088
G1 X71.660 Y87.061 E6.08363
G1 X72.524 Y87.604 E6.17638
G1 X73.486 Y87.941 E6.26913
G1 X74.410 Y88.045 E6.35366
G1 X75.955 Y88.045 E6.49414
G1 X75.955 Y96.400 E7.25387
G1 X74.466 Y96.400 E7.38928
G1 X74.384 Y95.464 E7.47476
G1 X73.725 Y93.004 E7.70626
G1 X72.648 Y90.695 E7.93798
G1 X71.159 Y88.582 E8.17304
G1 X69.388 Y86.811 E8.40072
G1 X67.303 Y85.351 E8.63223
G1 X64.996 Y84.275 E8.86373
G1 X62.536 Y83.616 E9.09523
G1 X60.000 Y83.394 E9.32674
G1 X57.464 Y83.616 E9.55824
G1 X55.004 Y84.275 E9.78975
G1 X52.697 Y85.351 E10.02125
G1 X50.612 Y86.811 E10.25276
G1 X48.811 Y88.612 E10.48426
G1 X47.351 Y90.697 E10.71576
G1 X46.275 Y93.004 E10.94727
G1 X45.616 Y95.464 E11.17877
G1 X45.539 Y96.340 E11.25880
G1 X46.107 Y97.025 F4800.000
G1 F1800
G1 X43.420 Y97.025 E11.50309
G1 X43.420 Y88.055 E12.31876
G1 X43.441 Y87.872 E12.33545
G1 X43.483 Y87.751 E12.34713
G1 X43.551 Y87.642 E12.35882
G1 X43.642 Y87.551 E12.37050
G1 X43.751 Y87.483 E12.38218
G1 X43.872 Y87.441 E12.39386
G1 X44.055 Y87.420 E12.41055
G1 X45.555 Y87.420 E12.54695
G1 X46.374 Y87.328 E12.62189
G1 X47.204 Y87.037 E12.70183
G1 X47.948 Y86.570 E12.78178
G1 X48.570 Y85.948 E12.86172
G1 X49.037 Y85.204 E12.94167
G1 X49.328 Y84.374 E13.02161
G1 X49.420 Y83.555 E13.09655
G1 X49.420 Y82.555 E13.18748
G1 X49.453 Y82.261 E13.21435
G1 X49.533 Y82.034 E13.23622
G1 X49.661 Y81.831 E13.25808
G1 X49.831 Y81.661 E13.27994
G1 X50.034 Y81.533 E13.30180
G1 X50.261 Y81.453 E13.32367
G1 X50.555 Y81.420 E13.35054
G1 X69.445 Y81.420 E15.06825
G1 X69.739 Y81.453 E15.09512
G1 X69.966 Y81.533 E15.11698
G1 X70.169 Y81.661 E15.13885
G1 X70.339 Y81.831 E15.16071
G1 X70.467 Y82.034 E15.18257
G1 X70.547 Y82.261 E15.20443
G1 X70.580 Y82.555 E15.23131
G1 X70.580 Y83.555 E15.32224
G1 X70.672 Y84.374 E15.39717
G1 X70.963 Y85.204 E15.47712
G1 X71.430 Y85.948 E15.55706
G1 X72.052 Y86.570 E15.63701
G1 X72.796 Y87.037 E15.71696
G1 X73.626 Y87.328 E15.79690
G1 X74.445 Y87.420 E15.87184
G1 X75.945 Y87.420 E16.00823
G1 X76.128 Y87.441 E16.02492
G1 X76.249 Y87.483 E16.03661
G1 X76.358 Y87.551 E16.04829
G1 X76.449 Y87.642 E16.05997
G1 X76.517 Y87.751 E16.07165
G1 X76.559 Y87.872 E16.08333
G1 X76.580 Y88.055 E16.10003
G1 X76.580 Y97.025 E16.91570
G1 X73.893 Y97.025 E17.15999
G1 X73.766 Y95.573 E17.29257
G1 X73.136 Y93.219 E17.51413
G1 X72.105 Y91.009 E17.73582
G1 X70.679 Y88.986 E17.96094
G1 X68.985 Y87.292 E18.17876
G1 X66.989 Y85.894 E18.40032
G1 X64.781 Y84.864 E18.62188
G1 X62.427 Y84.234 E18.84345
G1 X60.000 Y84.021 E19.06501
G1 X57.573 Y84.234 E19.28657
G1 X55.219 Y84.864 E19.50813
G1 X53.011 Y85.894 E19.72969
G1 X51.015 Y87.292 E19.95126
G1 X49.292 Y89.015 E20.17282
G1 X47.894 Y91.011 E20.39438
G1 X46.864 Y93.219 E20.61594
G1 X46.234 Y95.573 E20.83750
G1 X46.112 Y96.965 E20.96462
G1 X46.679 Y97.650 F4800.000
G1 F1800
G1 X42.795 Y97.650 E21.31780
G1 X42.795 Y88.020 E22.19349
G1 X42.828 Y87.732 E22.21977
G1 X42.917 Y87.478 E22.24426
G1 X43.060 Y87.250 E22.26874
G1 X43.250 Y87.060 E22.29323
G1 X43.478 Y86.917 E22.31772
G1 X43.732 Y86.828 E22.34220
G1 X44.020 Y86.795 E22.36849
G1 X45.520 Y86.795 E22.50488
G1 X46.234 Y86.715 E22.57023
G1 X46.931 Y86.471 E22.63737
G1 X47.556 Y86.078 E22.70451
G1 X48.078 Y85.556 E22.77165
G1 X48.471 Y84.931 E22.83879
G1 X48.715 Y84.234 E22.90593
G1 X48.795 Y83.520 E22.97128
G1 X48.795 Y82.520 E23.06220
G1 X48.840 Y82.121 E23.09867
G1 X48.966 Y81.761 E23.13334
G1 X49.169 Y81.438 E23.16801
G1 X49.438 Y81.169 E23.20267
G1 X49.761 Y80.966 E23.23734
G1 X50.121 Y80.840 E23.27201
G1 X50.520 Y80.795 E23.30847
G1 X69.480 Y80.795 E25.03256
G1 X69.879 Y80.840 E25.06903
G1 X70.239 Y80.966 E25.10369
G1 X70.562 Y81.169 E25.13836
G1 X70.831 Y81.438 E25.17303
G1 X71.034 Y81.761 E25.20770
G1 X71.160 Y82.121 E25.24236
G1 X71.205 Y82.520 E25.27883
G1 X71.205 Y83.520 E25.36976
G1 X71.285 Y84.234 E25.43510
G1 X71.529 Y84.931 E25.50224
G1 X71.922 Y85.556 E25.56939
G1 X72.444 Y86.078 E25.63653
G1 X73.069 Y86.471 E25.70367
G1 X73.766 Y86.715 E25.77081
G1 X74.480 Y86.795 E25.83615
G1 X75.980 Y86.795 E25.97255
G1 X76.268 Y86.828 E25.99883
G1 X76.522 Y86.917 E26.02332
G1 X76.750 Y87.060 E26.04781
G1 X76.940 Y87.250 E26.07229
G1 X77.083 Y87.478 E26.09678
G1 X77.172 Y87.732 E26.12126
G1 X77.205 Y88.020 E26.14755
G1 X77.205 Y97.650 E27.02323
G1 X73.321 Y97.650 E27.37641
G1 X73.148 Y95.682 E27.55608
G1 X72.546 Y93.434 E27.76770
G1 X71.562 Y91.324 E27.97937
G1 X70.199 Y89.390 E28.19454
G1 X68.582 Y87.772 E28.40251
G1 X66.676 Y86.437 E28.61413
G1 X64.566 Y85.454 E28.82575
G1 X62.318 Y84.852 E29.03737
G1 X60.000 Y84.649 E29.24899
G1 X57.682 Y84.852 E29.46061
G1 X55.434 Y85.454 E29.67223
G1 X53.324 Y86.437 E29.88385
G1 X51.418 Y87.772 E30.09546
G1 X49.772 Y89.418 E30.30708
G1 X48.437 Y91.324 E30.51870
G1 X47.454 Y93.434 E30.73032
G1 X46.851 Y95.682 E30.94194
G1 X46.685 Y97.590 E31.11616
G1 X46.346 Y97.429 F4800.000
G1 E29.11616 F2400.00000
G92 E0
G1 X44.718 Y96.018 F4800.000
G1 E2.00000 F2400.00000
G1 F1800
G1 X45.205 Y95.532 E2.06542
G1 X45.241 Y95.112 E2.10556
G1 X45.439 Y94.373 E2.17835
G1 X44.427 Y95.385 E2.31457
G1 X44.427 Y94.461 E2.40253
G1 X45.778 Y93.110 E2.58429
G1 X45.929 Y92.547 E2.63972
G1 X46.376 Y91.586 E2.74054
G1 X44.427 Y93.536 E3.00284
G1 X44.427 Y92.611 E3.09080
G1 X47.408 Y89.631 E3.49186
G1 X48.362 Y88.268 E3.65011
G1 X47.991 Y88.244 E3.68548
G1 X47.994 Y88.199 E3.68977
G1 X47.920 Y88.194 E3.69681
G1 X44.427 Y91.687 E4.16679
G1 X44.427 Y90.762 E4.25475
G1 X46.876 Y88.313 E4.58424
G1 X45.838 Y88.427 E4.68359
G1 X44.427 Y89.838 E4.87341
G1 X44.427 Y88.913 E4.96137
G1 X44.913 Y88.427 E5.02678
G1 E3.02678 F2400.00000
G92 E0
G1 X48.258 Y87.529 F4800.000
G1 E2.00000 F2400.00000
G1 F1800
G1 X48.436 Y87.541 E2.01465
G1 F1800
G1 X48.793 Y87.564 E2.04865
G1 F1800
G1 X48.847 Y87.565 E2.05433
G1 X49.565 Y86.847 E2.16212
G1 X49.565 Y86.820 E2.16496
G1 F1800
G1 X49.553 Y86.615 E2.18450
G1 F1800
G1 X49.529 Y86.258 E2.21379
G1 E0.21379 F2400.00000
G92 E0
G1 X50.427 Y82.913 F4800.000
G1 E2.00000 F2400.00000
G1 F1800
G1 X50.913 Y82.427 E2.06854
G1 X51.882 Y82.427 E2.16518
G1 X50.425 Y83.884 E2.37067
G1 X50.311 Y84.897 E2.47228
G1 X50.273 Y85.005 E2.48376
G1 X52.851 Y82.427 E2.84736
G1 X53.820 Y82.427 E2.94400
G1 X50.202 Y86.045 E3.45428
G1 X50.210 Y86.172 E3.46698
G1 X50.261 Y86.169 E3.47202
G1 X50.272 Y86.359 E3.49102
G1 X52.188 Y85.029 E3.72364
G1 X54.790 Y82.427 E4.09055
G1 X55.759 Y82.427 E4.18719
G1 X54.004 Y84.182 E4.43469
G1 X54.547 Y83.929 E4.49448
G1 X55.475 Y83.680 E4.59025
G1 X56.728 Y82.427 E4.76697
G1 X57.267 Y82.427 E4.82071
G1 X57.285 Y82.839 E4.86185
G1 X56.799 Y83.325 E4.93042
G1 X57.656 Y82.821 F4800.000
G1 F1800
G1 X58.234 Y82.795 E4.99883
G1 F1800
G1 X59.390 Y82.745 E5.12192
G1 F1800
G1 X60.032 Y82.720 E5.18256
G1 F1800
G1 X61.188 Y82.770 E5.30565
G1 F1800
G1 X62.344 Y82.821 E5.44247
G1 X62.733 Y82.913 F4800.000
G1 F1800
G1 X63.219 Y82.427 E5.50621
G1 X64.121 Y82.427 E5.58977
G1 X63.115 Y83.432 E5.72163
G1 X63.826 Y83.623 E5.78986
G1 X65.022 Y82.427 E5.94669
G1 X65.923 Y82.427 E6.03025
G1 X64.537 Y83.813 E6.21205
G1 X64.967 Y83.929 E6.25337
G1 X65.209 Y84.042 E6.27817
G1 X66.824 Y82.427 E6.48992
G1 X67.725 Y82.427 E6.57348
G1 X65.824 Y84.328 E6.82281
G1 X66.439 Y84.615 E6.88569
G1 X68.627 Y82.427 E7.17260
G1 X69.528 Y82.427 E7.25616
G1 X67.053 Y84.901 E7.58065
G1 X67.374 Y85.051 E7.61343
G1 X67.627 Y85.228 E7.64215
G1 X69.573 Y83.283 E7.89732
G1 X69.654 Y84.103 E7.97373
G1 X68.157 Y85.600 E8.17004
G1 X68.687 Y85.971 E8.23004
G1 X69.834 Y84.824 E8.38037
G1 X70.015 Y85.342 E8.43128
G1 X69.791 Y85.328 E8.45214
G1 X69.767 Y85.685 E8.48533
G1 X69.711 Y85.681 E8.49055
G1 X69.704 Y85.856 E8.50674
G1 X69.217 Y86.342 E8.57049
G1 X70.471 Y86.258 F4800.000
G1 F1800
G1 X70.447 Y86.615 E8.60214
G1 F1800
G1 X70.435 Y86.847 E8.62552
G1 X71.140 Y87.552 E8.72586
G1 X71.193 Y87.552 E8.73120
G1 F1800
G1 X71.389 Y87.540 E8.74876
G1 F1800
G1 X71.728 Y87.517 E8.77490
G1 X72.098 Y88.242 F4800.000
G1 F1800
G1 X71.612 Y88.728 E8.83836
G1 X71.983 Y89.254 E8.89779
G1 X73.098 Y88.139 E9.04336
G1 X73.589 Y88.311 E9.09142
G1 X73.800 Y88.335 E9.11093
G1 X72.354 Y89.780 E9.29967
G1 X72.725 Y90.307 E9.35910
G1 X74.606 Y88.425 E9.60467
G1 X75.502 Y88.427 E9.68736
G1 X73.061 Y90.867 E10.00590
G1 X73.347 Y91.479 E10.06822
G1 X75.573 Y89.252 E10.35886
G1 X75.573 Y90.149 E10.44167
G1 X73.632 Y92.091 E10.69507
G1 X73.917 Y92.702 E10.75739
G1 X75.573 Y91.047 E10.97355
G1 X75.573 Y91.944 E11.05636
G1 X74.159 Y93.358 E11.24102
G1 X74.348 Y94.066 E11.30863
G1 X75.573 Y92.841 E11.46854
G1 X75.573 Y93.738 E11.55135
G1 X74.538 Y94.773 E11.68652
G1 X74.727 Y95.481 E11.75413
G1 X75.573 Y94.635 E11.86454
G1 X75.573 Y95.532 E11.94736
G1 X75.087 Y96.018 E12.01082
G1 Z0.350 F4800.000
G1 E10.01082 F2400.00000
G92 E0
G1 X49.465 Y69.900 F4800.000
G1 E2.00000 F2400.00000
G1 F1800
G1 X48.009 Y69.900 E2.13236
G1 X47.935 Y69.312 E2.18626
G1 X47.811 Y68.607 E2.25137
G1 X47.649 Y67.897 E2.31756
G1 X47.452 Y67.196 E2.38376
G1 X47.220 Y66.506 E2.44995
G1 X46.954 Y65.829 E2.51615
G1 X46.654 Y65.165 E2.58235
G1 X46.322 Y64.517 E2.64854
G1 X45.958 Y63.887 E2.71474
G1 X45.563 Y63.275 E2.78093
G1 X45.138 Y62.684 E2.84713
G1 X44.684 Y62.115 E2.91332
G1 X44.203 Y61.569 E2.97952
G1 X43.694 Y61.048 E3.04572
G1 X43.161 Y60.553 E3.11191
G1 X42.603 Y60.085 E3.17811
G1 X42.023 Y59.645 E3.24430
G1 X41.421 Y59.235 E3.31050
G1 X40.800 Y58.856 E3.37670
G1 X40.161 Y58.508 E3.44289
G1 X39.505 Y58.192 E3.50909
G1 X38.834 Y57.909 E3.57528
G1 X38.150 Y57.660 E3.64148
G1 X37.454 Y57.445 E3.70767
G1 X36.749 Y57.266 E3.77387
G1 X36.035 Y57.122 E3.84007
G1 X35.315 Y57.013 E3.90626
G1 X34.591 Y56.941 E3.97246
G1 X33.864 Y56.904 E4.03865
G1 X33.136 Y56.904 E4.10485
G1 X32.409 Y56.941 E4.17104
G1 X31.685 Y57.013 E4.23724
G1 X30.965 Y57.122 E4.30344
G1 X30.251 Y57.266 E4.36963
G1 X29.546 Y57.445 E4.43583
G1 X28.850 Y57.660 E4.50202
G1 X28.166 Y57.909 E4.56822
